; generated by PrusaSlicer 2.6.0+MacOS-arm64 on 2024-05-06 at 06:38:12 UTC

; 

; external perimeters extrusion width = 0.45mm
; perimeters extrusion width = 0.45mm
; infill extrusion width = 0.45mm
; solid infill extrusion width = 0.45mm
; top infill extrusion width = 0.40mm
; first layer extrusion width = 0.42mm

M104 S200 ; set temperature
;TYPE:Custom
M140 S60          ; heatbed temperature
M190 S60          ; wait for the bed to heat up
G28 ; home all axes
G1 Z5 F5000 ; lift nozzle
M109 S200 ; set temperature and wait for it to be reached
G21 ; set units to millimeters
G90 ; use absolute coordinates
M82 ; use absolute distances for extrusion
G92 E0
; Filament gcode
M107
;LAYER_CHANGE
;Z:0.35
;HEIGHT:0.35
G1 Z.35 F7800
G1 E-2 F2400
G92 E0
G1 X81.792 Y42.438 F7800
G1 E2 F2400
;TYPE:Skirt/Brim
;WIDTH:0.42
G1 F1800
G1 X83.131 Y40.117 E2.13448
G1 X85.454 Y37.795 E2.29932
G1 X95.774 Y31.836 E2.89738
G1 X98.947 Y30.986 E3.06223
G1 X101.626 Y30.986 E3.19668
G1 X104.799 Y31.836 E3.36153
G1 X115.119 Y37.795 E3.95959
G1 X117.442 Y40.117 E4.12443
G1 X118.781 Y42.438 E4.25891
G1 X119.631 Y45.61 E4.42372
G1 X119.631 Y57.527 E5.02179
G1 X118.781 Y60.7 E5.18664
G1 X117.442 Y63.02 E5.32107
G1 X115.119 Y65.343 E5.48594
G1 X104.799 Y71.301 E6.08397
G1 X101.626 Y72.151 E6.24882
G1 X98.947 Y72.151 E6.38327
G1 X95.774 Y71.301 E6.54812
G1 X85.454 Y65.343 E7.14615
G1 X83.131 Y63.02 E7.31102
G1 X81.792 Y60.7 E7.44545
G1 X80.942 Y57.527 E7.6103
G1 X80.942 Y45.61 E8.20837
G1 X81.776 Y42.496 E8.37016
G1 E6.37016 F2400
G92 E0
G1 X88.106 Y44.868 F7800
G1 E2 F2400
G1 F1800
G1 X88.772 Y43.878 E2.05988
G1 X89.646 Y43.098 E2.11867
G1 X98.28 Y38.113 E2.61901
G1 X99.599 Y37.715 E2.68815
G1 X100.946 Y37.71 E2.75575
G1 X102.3 Y38.117 E2.82671
G1 X110.952 Y43.112 E3.32808
G1 X112.18 Y44.371 E3.41634
G1 X112.704 Y45.442 E3.47618
G1 X112.942 Y46.589 E3.53497
G1 X112.942 Y56.577 E4.03623
G1 X112.467 Y58.27 E4.12448
G1 X111.801 Y59.259 E4.18432
G1 X110.927 Y60.039 E4.24311
G1 X102.302 Y65.019 E4.74294
G1 X101.189 Y65.386 E4.80176
G1 X100 Y65.468 E4.86157
G1 X98.296 Y65.033 E4.94983
G1 X89.621 Y60.025 E5.45253
G1 X88.393 Y58.767 E5.54076
G1 X87.869 Y57.695 E5.60064
G1 X87.63 Y56.549 E5.65939
G1 X87.63 Y46.561 E6.16065
G1 X88.09 Y44.925 E6.24594
G1 X88.408 Y45.036 F7800
G1 F1800
G1 X89.019 Y44.12 E6.3012
G1 X89.834 Y43.388 E6.35618
G1 X98.434 Y38.422 E6.85457
G1 X99.673 Y38.053 E6.91945
G1 X100.92 Y38.055 E6.98203
G1 X102.145 Y38.426 E7.04627
G1 X110.759 Y43.399 E7.54544
G1 X111.883 Y44.549 E7.62614
G1 X112.371 Y45.535 E7.68135
G1 X112.598 Y46.607 E7.73634
G1 X112.598 Y56.554 E8.23554
G1 X112.165 Y58.102 E8.31621
G1 X111.554 Y59.018 E8.37147
G1 X110.739 Y59.75 E8.42645
G1 X102.145 Y64.711 E8.92445
G1 X101.104 Y65.051 E8.97941
G1 X100.005 Y65.122 E9.03468
G1 X98.448 Y64.723 E9.11534
G1 X89.814 Y59.738 E9.61568
G1 X88.69 Y58.589 E9.69635
G1 X88.202 Y57.602 E9.75161
G1 X87.975 Y56.53 E9.8066
G1 X87.975 Y46.584 E10.30575
G1 X88.392 Y45.093 E10.38345
G1 X88.711 Y45.203 F7800
G1 F1800
G1 X89.267 Y44.361 E10.43409
G1 X90.023 Y43.677 E10.48525
G1 X98.59 Y38.731 E10.9817
G1 X99.7 Y38.398 E11.03986
G1 X100.846 Y38.393 E11.09737
G1 X101.99 Y38.735 E11.15729
G1 X110.566 Y43.686 E11.65426
G1 X111.587 Y44.727 E11.72744
G1 X112.039 Y45.63 E11.77812
G1 X112.253 Y46.626 E11.82925
G1 X112.253 Y56.53 E12.32629
G1 X111.862 Y57.935 E12.39948
G1 X111.306 Y58.777 E12.45012
G1 X110.55 Y59.46 E12.50125
G1 X101.989 Y64.403 E12.99737
G1 X101.019 Y64.716 E13.04852
G1 X100.012 Y64.776 E13.09915
G1 X98.6 Y64.413 E13.17232
G1 X90.007 Y59.451 E13.6703
G1 X88.986 Y58.41 E13.74348
G1 X88.534 Y57.508 E13.79411
G1 X88.32 Y56.512 E13.84524
G1 X88.32 Y46.607 E14.34233
G1 X88.695 Y45.26 E14.4125
G1 X89.014 Y45.37 F7800
G1 F1800
G1 X89.543 Y44.569 E14.46067
G1 X90.211 Y43.967 E14.5058
G1 X98.744 Y39.04 E15.0003
G1 X99.773 Y38.735 E15.05416
G1 X100.82 Y38.737 E15.1067
G1 X101.834 Y39.043 E15.15986
G1 X110.374 Y43.974 E15.65476
G1 X111.291 Y44.906 E15.72038
G1 X111.72 Y45.764 E15.76852
G1 X111.908 Y46.644 E15.81368
G1 X111.908 Y56.507 E16.30866
G1 X111.559 Y57.768 E16.37432
G1 X111.03 Y58.569 E16.42249
G1 X110.362 Y59.171 E16.46762
G1 X101.832 Y64.096 E16.96194
G1 X100.977 Y64.373 E17.00704
G1 X100.019 Y64.43 E17.0552
G1 X98.752 Y64.102 E17.12088
G1 X90.199 Y59.164 E17.61652
G1 X89.282 Y58.231 E17.68217
G1 X88.852 Y57.373 E17.73033
G1 X88.665 Y56.494 E17.77543
G1 X88.665 Y46.63 E18.27046
G1 X88.998 Y45.428 E18.33306
G1 X89.318 Y45.535 F7800
G1 F1800
G1 X89.791 Y44.809 E18.37655
G1 X90.399 Y44.256 E18.4178
G1 X98.899 Y39.349 E18.91036
G1 X99.8 Y39.08 E18.95755
G1 X100.747 Y39.075 E19.00508
G1 X101.68 Y39.352 E19.05392
G1 X110.181 Y44.261 E19.54657
G1 X110.996 Y45.086 E19.60477
G1 X111.388 Y45.86 E19.64831
G1 X111.563 Y46.663 E19.68956
G1 X111.563 Y56.484 E20.18244
G1 X111.255 Y57.602 E20.24064
G1 X110.782 Y58.329 E20.28417
G1 X110.174 Y58.881 E20.32538
G1 X101.676 Y63.788 E20.81785
G1 X100.893 Y64.038 E20.8591
G1 X100.027 Y64.085 E20.90262
G1 X98.905 Y63.792 E20.96082
G1 X90.392 Y58.877 E21.45415
G1 X89.577 Y58.051 E21.51239
G1 X89.185 Y57.278 E21.55589
G1 X89.01 Y56.475 E21.59714
G1 X89.01 Y46.654 E22.09002
G1 X89.302 Y45.593 E22.14525
G1 X89.622 Y45.699 F7800
G1 F1800
G1 X90.042 Y45.047 E22.18417
G1 X90.589 Y44.545 E22.22143
G1 X99.054 Y39.658 E22.71197
G1 X99.872 Y39.418 E22.75475
G1 X100.72 Y39.42 E22.79731
G1 X101.525 Y39.661 E22.83948
G1 X109.989 Y44.548 E23.32997
G1 X110.702 Y45.268 E23.38082
G1 X111.057 Y45.957 E23.41972
G1 X111.218 Y46.682 E23.45699
G1 X111.218 Y56.461 E23.94776
G1 X110.951 Y57.439 E23.99864
G1 X110.531 Y58.09 E24.03752
G1 X109.984 Y58.592 E24.07478
G1 X101.52 Y63.479 E24.56527
G1 X100.812 Y63.702 E24.60252
G1 X100.038 Y63.739 E24.64141
G1 X99.058 Y63.482 E24.69226
G1 X90.584 Y58.59 E25.18331
G1 X89.871 Y57.869 E25.2342
G1 X89.516 Y57.18 E25.2731
G1 X89.355 Y56.456 E25.31032
G1 X89.355 Y46.676 E25.80114
G1 X89.607 Y45.757 E25.84896
G1 X89.928 Y45.861 F7800
G1 F1800
G1 X90.293 Y45.284 E25.88322
G1 X90.778 Y44.834 E25.91642
G1 X99.209 Y39.967 E26.40498
G1 X99.899 Y39.763 E26.44109
G1 X100.649 Y39.758 E26.47873
G1 X101.37 Y39.97 E26.51645
G1 X109.797 Y44.835 E27.00478
G1 X110.409 Y45.452 E27.04839
G1 X110.726 Y46.057 E27.08267
G1 X110.873 Y46.702 E27.11587
G1 X110.873 Y56.438 E27.60448
G1 X110.645 Y57.277 E27.64811
G1 X110.28 Y57.854 E27.68237
G1 X109.795 Y58.304 E27.71557
G1 X101.365 Y63.171 E28.20408
G1 X100.733 Y63.366 E28.23727
G1 X100.05 Y63.394 E28.27158
G1 X99.21 Y63.172 E28.31518
G1 X90.776 Y58.302 E28.80394
G1 X90.164 Y57.686 E28.84752
G1 X89.847 Y57.081 E28.8818
G1 X89.7 Y56.436 E28.915
G1 X89.7 Y46.699 E29.40366
G1 X89.912 Y45.919 E29.44423
G1 X90.234 Y46.021 F7800
G1 F1800
G1 X90.547 Y45.519 E29.47392
G1 X90.968 Y45.122 E29.50296
G1 X99.362 Y40.276 E29.98938
G1 X99.97 Y40.101 E30.02113
G1 X100.622 Y40.103 E30.05385
G1 X101.215 Y40.279 E30.08489
G1 X109.605 Y45.123 E30.57109
G1 X110.117 Y45.637 E30.6075
G1 X110.396 Y46.159 E30.6372
G1 X110.528 Y46.722 E30.66622
G1 X110.528 Y56.416 E31.15272
G1 X110.339 Y57.117 E31.18916
G1 X110.026 Y57.619 E31.21885
G1 X109.605 Y58.015 E31.24786
G1 X101.21 Y62.862 E31.73435
G1 X100.656 Y63.029 E31.76339
G1 X100.065 Y63.048 E31.79307
G1 X99.363 Y62.862 E31.82952
G1 X90.968 Y58.015 E32.31601
G1 X90.456 Y57.5 E32.35246
G1 X90.177 Y56.979 E32.38212
G1 X90.045 Y56.415 E32.41119
G1 X90.045 Y46.722 E32.89764
G1 X90.219 Y46.079 E32.93107
G1 X90.542 Y46.179 F7800
G1 F1800
G1 X90.802 Y45.752 E32.95616
G1 X91.159 Y45.41 E32.98097
G1 X99.517 Y40.585 E33.4653
G1 X99.997 Y40.446 E33.49038
G1 X100.552 Y40.441 E33.51823
G1 X101.062 Y40.588 E33.54487
G1 X109.413 Y45.41 E34.02882
G1 X109.827 Y45.825 E34.05824
G1 X110.067 Y46.264 E34.08335
G1 X110.183 Y46.744 E34.10813
G1 X110.183 Y56.393 E34.59237
G1 X110.031 Y56.959 E34.62178
G1 X109.771 Y57.386 E34.64687
G1 X109.414 Y57.727 E34.67165
G1 X101.056 Y62.552 E35.15598
G1 X100.582 Y62.691 E35.18077
G1 X100.082 Y62.703 E35.20587
G1 X99.516 Y62.552 E35.23527
G1 X91.16 Y57.728 E35.71949
G1 X90.746 Y57.313 E35.74891
G1 X90.506 Y56.874 E35.77402
G1 X90.39 Y56.394 E35.7988
G1 X90.39 Y46.745 E36.28304
G1 X90.526 Y46.237 E36.30943
G1 X90.851 Y46.333 F7800
G1 F1800
G1 X91.06 Y45.981 E36.32997
G1 X91.351 Y45.698 E36.35034
G1 X99.67 Y40.895 E36.83242
G1 X100.065 Y40.784 E36.85301
G1 X100.525 Y40.786 E36.8761
G1 X100.907 Y40.897 E36.89606
G1 X109.221 Y45.697 E37.37785
G1 X109.538 Y46.015 E37.40038
G1 X109.738 Y46.372 E37.42092
G1 X109.838 Y46.766 E37.44132
G1 X109.838 Y56.371 E37.92336
G1 X109.722 Y56.804 E37.94586
G1 X109.513 Y57.156 E37.9664
G1 X109.222 Y57.44 E37.98681
G1 X100.903 Y62.242 E38.46887
G1 X100.512 Y62.353 E38.48927
G1 X100.102 Y62.358 E38.50985
G1 X99.669 Y62.242 E38.53235
G1 X91.352 Y57.44 E39.01432
G1 X91.035 Y57.123 E39.03682
G1 X90.834 Y56.765 E39.05742
G1 X90.734 Y56.372 E39.07777
G1 X90.734 Y46.767 E39.55981
G1 X90.835 Y46.391 E39.57935
G1 X91.161 Y46.485 F7800
G1 F1800
G1 X91.321 Y46.208 E39.5954
G1 X91.544 Y45.985 E39.61123
G1 X99.822 Y41.206 E40.09093
G1 X100.129 Y41.124 E40.10688
G1 X100.495 Y41.13 E40.12525
G1 X100.752 Y41.206 E40.1387
G1 X109.029 Y45.985 E40.61836
G1 X109.252 Y46.208 E40.63419
G1 X109.412 Y46.485 E40.65024
G1 X109.494 Y46.79 E40.66609
G1 X109.494 Y56.348 E41.14577
G1 X109.412 Y56.652 E41.16157
G1 X109.252 Y56.93 E41.17767
G1 X109.029 Y57.153 E41.1935
G1 X100.751 Y61.932 E41.6732
G1 X100.447 Y62.013 E41.68899
G1 X100.126 Y62.013 E41.7051
G1 X99.822 Y61.932 E41.72089
G1 X91.544 Y57.153 E42.20059
G1 X91.321 Y56.93 E42.21642
G1 X91.161 Y56.652 E42.23252
G1 X91.079 Y56.348 E42.24832
G1 X91.079 Y46.79 E42.728
G1 X91.145 Y46.543 E42.74083
G1 X91.471 Y46.638 F7800
G1 F1800
G1 X91.609 Y46.4 E42.75464
G1 X91.736 Y46.272 E42.76369
G1 X99.975 Y41.516 E43.24112
G1 X100.147 Y41.469 E43.25007
G1 X100.465 Y41.474 E43.26603
G1 X100.596 Y41.514 E43.2729
G1 X108.837 Y46.272 E43.75046
G1 X108.964 Y46.4 E43.75951
G1 X109.102 Y46.638 E43.77332
G1 X109.149 Y46.812 E43.78237
G1 X109.149 Y56.325 E44.25979
G1 X109.102 Y56.499 E44.26884
G1 X108.964 Y56.738 E44.28269
G1 X108.837 Y56.865 E44.2917
G1 X100.598 Y61.622 E44.76915
G1 X100.424 Y61.669 E44.7782
G1 X100.149 Y61.669 E44.792
G1 X99.975 Y61.622 E44.80105
G1 X91.736 Y56.865 E45.2785
G1 X91.609 Y56.738 E45.28751
G1 X91.471 Y56.499 E45.30136
G1 X91.424 Y56.325 E45.31041
G1 X91.424 Y46.812 E45.78783
G1 X91.455 Y46.696 E45.79386
G1 X91.781 Y46.791 F7800
G1 F1800
G1 X91.928 Y46.56 E45.8076
G1 X100.127 Y41.826 E46.28274
G1 X100.445 Y41.826 E46.2987
G1 X108.645 Y46.56 E46.77388
G1 X108.792 Y46.791 E46.78762
G1 X108.792 Y56.347 E47.2672
G1 X108.645 Y56.578 E47.28094
G1 X100.445 Y61.312 E47.75612
G1 X100.127 Y61.312 E47.77208
G1 X91.896 Y56.546 E48.24941
G1 X91.769 Y56.303 E48.26317
G1 X91.769 Y46.849 E48.73763
G1 X92.114 Y46.904 F7800
G1 F1800
G1 X92.16 Y46.824 E48.74226
G1 X100.24 Y42.159 E49.21049
G1 X100.333 Y42.159 E49.21516
G1 X108.413 Y46.824 E49.68339
G1 X108.459 Y46.904 E49.68802
G1 X108.459 Y56.234 E50.15625
G1 X108.413 Y56.314 E50.16088
G1 X100.333 Y60.979 E50.62911
G1 X100.24 Y60.979 E50.63378
G1 X92.16 Y56.314 E51.10201
G1 X92.114 Y56.234 E51.10664
G1 X92.114 Y46.964 E51.57186
G1 E49.57186 F2400
G92 E0
G1 X100.286 Y59.767 F7800
G1 E2 F2400
;TYPE:Perimeter
;WIDTH:0.42
G1 F1800
G1 X93.186 Y55.668 E2.41144
G1 X93.186 Y47.469 E2.82291
G1 X100.286 Y43.37 E3.23435
G1 X107.387 Y47.469 E3.64583
G1 X107.387 Y55.668 E4.0573
G1 X100.338 Y59.737 E4.46577
G1 X100.286 Y60.166 F7800
G1 F1800
G1 X92.841 Y55.867 E4.89722
G1 X92.841 Y47.27 E5.32867
G1 X100.286 Y42.972 E5.7601
G1 X107.732 Y47.27 E6.19157
G1 X107.732 Y55.867 E6.62302
G1 X100.338 Y60.136 E7.0515
G1 X100.286 Y60.564 F7800
;TYPE:External perimeter
G1 F1800
G1 X92.496 Y56.066 E7.50294
G1 X92.496 Y47.071 E7.95436
G1 X100.286 Y42.574 E8.40577
G1 X108.076 Y47.071 E8.85718
G1 X108.076 Y56.066 E9.3086
G1 X100.338 Y60.534 E9.75703
G1 X100.086 Y60.217 F7800
G1 E7.75703 F2400
G92 E0
G1 X105.602 Y46.559 F7800
G1 E2 F2400
;TYPE:Solid infill
;WIDTH:0.422804
G1 F1800
G1 X107.128 Y48.084 E2.10915
G1 X107.128 Y48.576 E2.13404
G1 X104.863 Y46.311 E2.2961
G1 X103.7 Y45.639 E2.36406
G1 X107.128 Y49.068 E2.60937
G1 X107.128 Y49.56 E2.63426
G1 X102.536 Y44.968 E2.96282
G1 X101.373 Y44.296 E3.03078
G1 X107.128 Y50.051 E3.44255
G1 X107.128 Y50.543 E3.46744
G1 X100.266 Y43.681 E3.95842
G1 X99.954 Y43.861 E3.97664
G1 X107.128 Y51.035 E4.48994
G1 X107.128 Y51.526 E4.51478
G1 X99.642 Y44.041 E5.05037
G1 X99.331 Y44.221 E5.06855
G1 X107.128 Y52.018 E5.62643
G1 X107.128 Y52.51 E5.65132
G1 X99.019 Y44.401 E6.23152
G1 X98.707 Y44.581 E6.24974
G1 X107.128 Y53.002 E6.85227
G1 X107.128 Y53.493 E6.87711
G1 X98.395 Y44.761 E7.50193
G1 X98.084 Y44.941 E7.52011
G1 X107.128 Y53.985 E8.16721
G1 X107.128 Y54.477 E8.1921
G1 X97.772 Y45.121 E8.86153
G1 X97.46 Y45.301 E8.87975
G1 X107.128 Y54.968 E9.57146
G1 X107.128 Y55.46 E9.59635
G1 X97.148 Y45.481 E10.31039
G1 X96.837 Y45.661 E10.32857
G1 X106.853 Y55.677 E11.04522
G1 X106.542 Y55.857 E11.0634
G1 X96.525 Y45.841 E11.78009
G1 X96.213 Y46.02 E11.79829
G1 X106.23 Y56.037 E12.51501
G1 X105.918 Y56.217 E12.53323
G1 X95.902 Y46.2 E13.24992
G1 X95.59 Y46.38 E13.26814
G1 X105.607 Y56.397 E13.98486
G1 X105.295 Y56.577 E14.00308
G1 X95.278 Y46.56 E14.7198
G1 X94.966 Y46.74 E14.73802
G1 X104.983 Y56.757 E15.45474
G1 X104.671 Y56.937 E15.47296
G1 X94.655 Y46.92 E16.18965
G1 X94.343 Y47.1 E16.20787
G1 X104.36 Y57.117 E16.92459
G1 X104.048 Y57.297 E16.94281
G1 X94.031 Y47.28 E17.65953
G1 X93.719 Y47.46 E17.67775
G1 X103.736 Y57.477 E18.39447
G1 X103.424 Y57.657 E18.41269
G1 X93.445 Y47.678 E19.12669
G1 X93.445 Y48.169 E19.15153
G1 X103.113 Y57.837 E19.84328
G1 X102.801 Y58.017 E19.8615
G1 X93.445 Y48.661 E20.53093
G1 X93.445 Y49.153 E20.55582
G1 X102.489 Y58.197 E21.20292
G1 X102.177 Y58.377 E21.22114
G1 X93.445 Y49.644 E21.84596
G1 X93.445 Y50.136 E21.87085
G1 X101.866 Y58.557 E22.47338
G1 X101.554 Y58.737 E22.4916
G1 X93.445 Y50.628 E23.0718
G1 X93.445 Y51.12 E23.09669
G1 X101.242 Y58.917 E23.65457
G1 X100.931 Y59.097 E23.67275
G1 X93.445 Y51.611 E24.20838
G1 X93.445 Y52.103 E24.23327
G1 X100.619 Y59.277 E24.74657
G1 X100.307 Y59.457 E24.76479
G1 X93.445 Y52.595 E25.25577
G1 X93.445 Y53.086 E25.28061
G1 X99.2 Y58.841 E25.69238
G1 X98.037 Y58.17 E25.76031
G1 X93.445 Y53.578 E26.08887
G1 X93.445 Y54.07 E26.11376
G1 X96.873 Y57.498 E26.35904
G1 X95.71 Y56.826 E26.427
G1 X93.445 Y54.562 E26.58903
G1 X93.445 Y55.053 E26.61387
G1 X94.97 Y56.579 E26.72302
;LAYER_CHANGE
;Z:0.65
;HEIGHT:0.3
G1 Z.65 F7800
G1 E24.72302 F2400
G92 E0
G1 X100.286 Y59.656 F7800
G1 E2 F2400
;TYPE:Perimeter
;WIDTH:0.45
G1 F3600
G1 X93.283 Y55.612 E2.38895
G1 X93.283 Y47.525 E2.77791
G1 X100.286 Y43.482 E3.16683
G1 X107.29 Y47.525 E3.55579
G1 X107.29 Y55.612 E3.94475
G1 X100.338 Y59.626 E4.33085
G1 X100.286 Y60.101 F7800
G1 F3600
G1 X92.897 Y55.835 E4.74121
G1 X92.897 Y47.303 E5.15157
G1 X100.286 Y43.036 E5.56196
G1 X107.676 Y47.303 E5.97239
G1 X107.676 Y55.835 E6.38275
G1 X100.338 Y60.071 E6.79027
G1 X100.286 Y60.547 F7800
;TYPE:External perimeter
G1 F1800
G1 X92.511 Y56.058 E7.22207
G1 X92.511 Y47.08 E7.65388
G1 X100.286 Y42.591 E8.08568
G1 X108.061 Y47.08 E8.51748
G1 X108.061 Y56.058 E8.94929
G1 X100.338 Y60.517 E9.37821
G1 X100.086 Y60.2 F7800
G1 E7.37821 F2400
G92 E0
G1 X94.143 Y47.363 F7800
G1 E2 F2400
;TYPE:Solid infill
G1 F1200
G1 X93.572 Y47.933 E2.0388
G1 X93.509 Y47.621 E2.05411
;WIDTH:0.404381
G1 X93.437 Y47.602 E2.05727
G1 X93.457 Y47.673 E2.0604
G1 X93.498 Y47.662 E2.0622
G1 X93.572 Y48.479 F7800
;WIDTH:0.45
G1 F1200
G1 X95.433 Y46.618 E2.18878
G1 X96.723 Y45.873 F7800
G1 F1200
G1 X93.572 Y49.024 E2.40311
G1 X93.572 Y49.569 E2.42932
G1 X98.014 Y45.128 E2.73143
G1 X99.304 Y44.383 F7800
G1 F1200
G1 X93.572 Y50.115 E3.12131
G1 X93.572 Y50.66 E3.14752
G1 X100.369 Y43.863 E3.60984
G1 X100.715 Y44.063 E3.62906
G1 X93.572 Y51.205 E4.11488
G1 X93.572 Y51.751 E4.14114
G1 X101.06 Y44.262 E4.6505
G1 X101.406 Y44.462 E4.66972
G1 X93.572 Y52.296 E5.20258
G1 X93.572 Y52.841 E5.22879
G1 X101.752 Y44.662 E5.78515
G1 X102.098 Y44.861 E5.80435
G1 X93.572 Y53.387 E6.38428
G1 X93.572 Y53.932 E6.41049
