; generated by Slic3r Prusa Edition 1.41.3+win64 on 2019-02-28 at 14:53:31

; 

; external perimeters extrusion width = 0.45mm
; perimeters extrusion width = 0.45mm
; infill extrusion width = 0.45mm
; solid infill extrusion width = 0.45mm
; top infill extrusion width = 0.40mm
; first layer extrusion width = 0.42mm

M73 P0 R98
M73 Q0 S99
M201 X1000 Y1000 Z1000 E5000 ; sets maximum accelerations, mm/sec^2
M203 X200 Y200 Z12 E120 ; sets maximum feedrates, mm/sec
M204 P1250 R1250 T1250 ; sets acceleration (P, T) and retract acceleration (R), mm/sec^2
M205 X8.00 Y8.00 Z0.40 E1.50 ; sets the jerk limits, mm/sec
M205 S0 T0 ; sets the minimum extruding and travel feed rate, mm/sec
M107
;M115 U3.5.1 ; tell printer latest fw version
M83  ; extruder relative mode
M104 S215 ; set extruder temp
M140 S60 ; set bed temp
M190 S60 ; wait for bed temp
M109 S215 ; wait for extruder temp
G28 W ; home all without mesh bed level
G80 ; mesh bed leveling
G1 Y-3.0 F1000.0 ; go outside print area
G92 E0.0
G1 X60.0 E9.0  F1000.0 ; intro line
M73 Q0 S99
M73 P0 R98
G1 X100.0 E12.5  F1000.0 ; intro line
G92 E0.0
M221 S95
M900 K30; Filament gcode
G21 ; set units to millimeters
G90 ; use absolute coordinates
M83 ; use relative distances for extrusion
;BEFORE_LAYER_CHANGE
G92 E0.0
;0.2


G1 E-0.80000 F2100.00000
G1 Z0.600 F10800.000
;AFTER_LAYER_CHANGE
;0.2
G1 X92.998 Y73.284
G1 Z0.200
G1 E0.80000 F2100.00000
M204 S1000
G1 F1200
G1 X95.191 Y71.533 E0.08798
G1 X95.647 Y71.266 E0.01658
G1 X98.097 Y70.272 E0.08291
G1 X100.815 Y69.902 E0.08600
G1 X149.055 Y69.898 E1.51253
G1 X151.667 Y70.224 E0.08252
G1 X152.180 Y70.366 E0.01669
G1 X154.595 Y71.389 E0.08222
G1 X156.849 Y73.118 E0.08908
G1 X158.482 Y75.211 E0.08325
G1 X158.739 Y75.657 E0.01612
G1 X159.725 Y78.087 E0.08222
G1 X160.086 Y80.688 E0.08234
G1 X160.099 Y129.172 E1.52019
G1 X159.775 Y131.678 E0.07922
G1 X159.636 Y132.177 E0.01623
G1 X158.619 Y134.582 E0.08188
G1 X157.002 Y136.716 E0.08394
G1 X154.806 Y138.469 E0.08810
G1 X154.340 Y138.740 E0.01692
G1 X151.892 Y139.731 E0.08279
G1 X149.060 Y140.102 E0.08954
G1 X100.828 Y140.099 E1.51231
G1 X98.322 Y139.775 E0.07922
G1 X97.823 Y139.636 E0.01623
G1 X95.418 Y138.619 E0.08188
G1 X93.284 Y137.002 E0.08394
G1 X91.531 Y134.806 E0.08810
G1 X91.260 Y134.340 E0.01692
G1 X90.269 Y131.892 E0.08279
G1 X89.898 Y129.060 E0.08954
G1 X89.901 Y80.828 E1.51231
G1 X90.225 Y78.322 E0.07922
G1 X90.364 Y77.823 E0.01623
G1 X91.381 Y75.418 E0.08188
G1 X92.962 Y73.332 E0.08206
; PURGING FINISHED
G1 F8640
G1 X95.191 Y71.533 E-0.66136
G1 X95.560 Y71.317 E-0.09864
G1 E-0.04000 F2100.00000
G1 Z0.800 F10800.000
G1 X119.460 Y99.460
G1 Z0.200
G1 E0.80000 F2100.00000
G1 F1200
G1 X121.082 Y98.214 E0.06413
G1 X122.972 Y97.432 E0.06413
G1 X125.000 Y97.165 E0.06413
G1 X127.028 Y97.432 E0.06413
G1 X128.918 Y98.214 E0.06413
G1 X130.540 Y99.460 E0.06413
G1 X131.786 Y101.082 E0.06413
G1 X132.568 Y102.972 E0.06413
G1 X132.835 Y105.000 E0.06413
G1 X132.568 Y107.028 E0.06413
G1 X131.786 Y108.918 E0.06413
G1 X130.540 Y110.540 E0.06413
G1 X128.918 Y111.786 E0.06413
G1 X127.028 Y112.568 E0.06413
G1 X125.000 Y112.835 E0.06413
G1 X122.972 Y112.568 E0.06413
G1 X121.082 Y111.786 E0.06413
G1 X119.460 Y110.540 E0.06413
G1 X118.214 Y108.918 E0.06413
G1 X117.432 Y107.028 E0.06413
G1 X117.165 Y105.000 E0.06413
G1 X117.432 Y102.972 E0.06413
G1 X118.214 Y101.082 E0.06413
G1 X119.423 Y99.507 E0.06225
G1 X119.124 Y99.278 F10800.000
G1 F1200
G1 X119.191 Y99.191 E0.00344
G1 X120.892 Y97.885 E0.06725
G1 X122.874 Y97.064 E0.06725
G1 X125.000 Y96.784 E0.06725
G1 X127.126 Y97.064 E0.06725
G1 X129.108 Y97.885 E0.06725
G1 X130.809 Y99.191 E0.06725
G1 X132.115 Y100.892 E0.06725
G1 X132.936 Y102.874 E0.06725
G1 X133.216 Y105.000 E0.06725
G1 X132.936 Y107.126 E0.06725
G1 X132.115 Y109.108 E0.06725
G1 X130.809 Y110.809 E0.06725
G1 X129.108 Y112.115 E0.06725
G1 X127.126 Y112.936 E0.06725
G1 X125.000 Y113.216 E0.06725
G1 X122.874 Y112.936 E0.06725
G1 X120.892 Y112.115 E0.06725
G1 X119.191 Y110.809 E0.06725
G1 X117.885 Y109.108 E0.06725
G1 X117.064 Y107.126 E0.06725
G1 X116.784 Y105.000 E0.06725
G1 X117.064 Y102.874 E0.06725
G1 X117.885 Y100.892 E0.06725
G1 X119.087 Y99.325 E0.06193
G1 X119.233 Y99.287 F10800.000
G1 F8640
G1 X119.191 Y99.191 E-0.03917
G1 X120.892 Y97.885 E-0.49522
G1 X121.795 Y97.511 E-0.22561
G1 E-0.04000 F2100.00000
G1 Z0.800 F10800.000
G1 X118.029 Y108.174
G1 Z0.200
G1 E0.80000 F2100.00000
G1 F1200
G1 X121.512 Y111.657 E0.15464
G1 X122.424 Y112.035 E0.03098
G1 X117.965 Y107.576 E0.19796
G1 X117.707 Y106.954 E0.02115
G1 X117.682 Y106.759 E0.00618
G1 X123.241 Y112.318 E0.24683
G1 X123.856 Y112.399 E0.01947
G1 X117.601 Y106.144 E0.27773
G1 X117.520 Y105.529 E0.01947
G1 X124.471 Y112.480 E0.30863
G1 X125.000 Y112.550 E0.01676
G1 X125.066 Y112.541 E0.00208
G1 X117.459 Y104.934 E0.33775
G1 X117.521 Y104.462 E0.01494
G1 X125.538 Y112.479 E0.35594
G1 X126.009 Y112.417 E0.01494
G1 X117.583 Y103.991 E0.37413
G1 X117.645 Y103.519 E0.01494
G1 X126.481 Y112.355 E0.39233
G1 X126.953 Y112.293 E0.01494
G1 X117.707 Y103.047 E0.41052
G1 X117.863 Y102.669 E0.01283
G1 X127.331 Y112.137 E0.42035
G1 X127.708 Y111.980 E0.01283
G1 X118.020 Y102.292 E0.43017
G1 X118.176 Y101.914 E0.01283
G1 X128.086 Y111.824 E0.43999
G1 X128.464 Y111.667 E0.01283
G1 X118.333 Y101.536 E0.44981
G1 X118.462 Y101.225 E0.01058
G1 X118.502 Y101.172 E0.00210
G1 X128.828 Y111.498 E0.45846
G1 X129.130 Y111.266 E0.01196
G1 X118.734 Y100.870 E0.46158
G1 X118.966 Y100.568 E0.01196
G1 X129.432 Y111.034 E0.46470
G1 X129.734 Y110.802 E0.01196
G1 X119.198 Y100.266 E0.46782
G1 X119.429 Y99.964 E0.01196
G1 X130.036 Y110.571 E0.47094
G1 X130.339 Y110.339 E0.01196
G1 X119.661 Y99.661 E0.47406
G1 X119.963 Y99.430 E0.01196
G1 X130.570 Y110.037 E0.47094
G1 X130.802 Y109.734 E0.01196
G1 X120.266 Y99.198 E0.46782
G1 X120.568 Y98.966 E0.01196
G1 X131.034 Y109.432 E0.46470
G1 X131.266 Y109.130 E0.01196
G1 X120.870 Y98.734 E0.46158
G1 X121.172 Y98.502 E0.01196
G1 X131.498 Y108.828 E0.45846
G1 X131.538 Y108.775 E0.00210
G1 X131.667 Y108.464 E0.01058
G1 X121.536 Y98.333 E0.44982
G1 X121.914 Y98.176 E0.01283
G1 X131.824 Y108.086 E0.44000
G1 X131.980 Y107.709 E0.01283
G1 X122.291 Y98.020 E0.43018
G1 X122.669 Y97.863 E0.01283
G1 X132.137 Y107.331 E0.42036
G1 X132.293 Y106.953 E0.01283
G1 X123.047 Y97.707 E0.41052
G1 X123.519 Y97.645 E0.01494
G1 X132.355 Y106.481 E0.39233
G1 X132.417 Y106.010 E0.01494
G1 X123.990 Y97.583 E0.37414
G1 X124.462 Y97.521 E0.01494
G1 X132.479 Y105.538 E0.35595
G1 X132.541 Y105.066 E0.01494
G1 X124.934 Y97.459 E0.33776
G1 X125.000 Y97.450 E0.00209
G1 X125.529 Y97.520 E0.01675
G1 X132.480 Y104.471 E0.30863
G1 X132.399 Y103.856 E0.01947
G1 X126.144 Y97.601 E0.27774
G1 X126.759 Y97.682 E0.01947
G1 X132.318 Y103.241 E0.24684
G1 X132.293 Y103.046 E0.00618
G1 X132.035 Y102.424 E0.02114
G1 X127.576 Y97.965 E0.19797
G1 X128.488 Y98.343 E0.03098
G1 X131.971 Y101.826 E0.15465
G1 F8640
G1 X129.644 Y99.498 E-0.76000
G1 E-0.04000 F2100.00000
G1 Z0.800 F10800.000
G1 X141.470 Y103.076
G1 Z0.200
G1 E0.80000 F2100.00000
G1 F1200
G1 X141.484 Y102.972 E0.00330
G1 X142.266 Y101.082 E0.06413
G1 X143.511 Y99.460 E0.06413
G1 X145.134 Y98.214 E0.06413
G1 X147.024 Y97.432 E0.06413
G1 X149.052 Y97.165 E0.06413
G1 X151.080 Y97.432 E0.06413
G1 X152.969 Y98.214 E0.06413
G1 X154.592 Y99.460 E0.06413
G1 X155.837 Y101.082 E0.06413
G1 X156.620 Y102.972 E0.06413
G1 X156.887 Y105.000 E0.06413
G1 X156.620 Y107.028 E0.06413
G1 X155.837 Y108.918 E0.06413
G1 X154.592 Y110.540 E0.06413
G1 X152.969 Y111.786 E0.06413
G1 X151.080 Y112.568 E0.06413
G1 X149.052 Y112.835 E0.06413
G1 X147.024 Y112.568 E0.06413
G1 X145.134 Y111.786 E0.06413
G1 X143.511 Y110.540 E0.06413
G1 X142.266 Y108.918 E0.06413
G1 X141.484 Y107.028 E0.06413
G1 X141.217 Y105.000 E0.06413
G1 X141.462 Y103.136 E0.05896
G1 X141.116 Y102.874 F10800.000
G1 F1200
G1 X141.937 Y100.892 E0.06725
G1 X143.242 Y99.191 E0.06725
G1 X144.944 Y97.885 E0.06725
G1 X146.925 Y97.064 E0.06725
G1 X149.052 Y96.784 E0.06725
G1 X151.178 Y97.064 E0.06725
G1 X153.160 Y97.885 E0.06725
G1 X154.861 Y99.191 E0.06725
G1 X156.167 Y100.892 E0.06725
G1 X156.987 Y102.874 E0.06725
G1 X157.267 Y105.000 E0.06725
G1 X156.987 Y107.126 E0.06725
G1 X156.167 Y109.108 E0.06725
G1 X154.861 Y110.809 E0.06725
G1 X153.160 Y112.115 E0.06725
G1 X151.178 Y112.936 E0.06725
G1 X149.052 Y113.216 E0.06725
G1 X146.925 Y112.936 E0.06725
G1 X144.944 Y112.115 E0.06725
G1 X143.242 Y110.809 E0.06725
G1 X141.937 Y109.108 E0.06725
G1 X141.116 Y107.126 E0.06725
G1 X140.836 Y105.000 E0.06725
G1 X141.108 Y102.933 E0.06536
G1 X141.503 Y102.770 F10800.000
G1 F8640
G1 X141.937 Y100.892 E-0.50861
G1 X142.600 Y100.028 E-0.25139
G1 E-0.04000 F2100.00000
G1 Z0.800 F10800.000
G1 X142.081 Y108.174
G1 Z0.200
G1 E0.80000 F2100.00000
G1 F1200
G1 X145.564 Y111.657 E0.15464
G1 X146.475 Y112.035 E0.03098
G1 X142.017 Y107.576 E0.19796
G1 X141.759 Y106.954 E0.02115
G1 X141.733 Y106.759 E0.00618
G1 X147.293 Y112.318 E0.24683
G1 X147.908 Y112.399 E0.01947
G1 X141.652 Y106.144 E0.27773
G1 X141.571 Y105.529 E0.01947
G1 X148.523 Y112.480 E0.30863
G1 X149.052 Y112.550 E0.01676
G1 X149.118 Y112.541 E0.00208
G1 X141.510 Y104.934 E0.33775
G1 X141.573 Y104.462 E0.01494
G1 X149.589 Y112.479 E0.35594
G1 X150.061 Y112.417 E0.01494
G1 X141.635 Y103.991 E0.37413
G1 X141.697 Y103.519 E0.01494
G1 X150.533 Y112.355 E0.39233
G1 X151.005 Y112.293 E0.01494
G1 X141.759 Y103.047 E0.41052
G1 X141.915 Y102.669 E0.01283
G1 X151.383 Y112.137 E0.42035
G1 X151.760 Y111.980 E0.01283
G1 X142.072 Y102.292 E0.43017
M73 Q1 S98
M73 P1 R97
G1 X142.228 Y101.914 E0.01283
G1 X152.138 Y111.824 E0.43999
G1 X152.515 Y111.667 E0.01283
G1 X142.384 Y101.536 E0.44981
G1 X142.513 Y101.225 E0.01058
G1 X142.554 Y101.172 E0.00210
G1 X152.880 Y111.498 E0.45846
G1 X153.182 Y111.266 E0.01196
G1 X142.786 Y100.870 E0.46158
G1 X143.018 Y100.568 E0.01196
G1 X153.484 Y111.034 E0.46470
G1 X153.786 Y110.802 E0.01196
G1 X143.249 Y100.266 E0.46782
G1 X143.481 Y99.964 E0.01196
G1 X154.088 Y110.571 E0.47094
G1 X154.390 Y110.339 E0.01196
G1 X143.713 Y99.661 E0.47406
G1 X144.015 Y99.430 E0.01196
G1 X154.622 Y110.037 E0.47094
G1 X154.854 Y109.734 E0.01196
G1 X144.317 Y99.198 E0.46782
G1 X144.619 Y98.966 E0.01196
G1 X155.086 Y109.432 E0.46470
G1 X155.318 Y109.130 E0.01196
G1 X144.922 Y98.734 E0.46158
G1 X145.224 Y98.502 E0.01196
G1 X155.550 Y108.828 E0.45846
G1 X155.590 Y108.775 E0.00210
G1 X155.719 Y108.464 E0.01058
G1 X145.588 Y98.333 E0.44982
G1 X145.966 Y98.176 E0.01283
G1 X155.876 Y108.086 E0.44000
G1 X156.032 Y107.709 E0.01283
G1 X146.343 Y98.020 E0.43018
G1 X146.721 Y97.863 E0.01283
G1 X156.188 Y107.331 E0.42036
G1 X156.345 Y106.953 E0.01283
G1 X147.098 Y97.707 E0.41052
G1 X147.570 Y97.645 E0.01494
G1 X156.407 Y106.481 E0.39233
G1 X156.469 Y106.010 E0.01494
G1 X148.042 Y97.583 E0.37414
G1 X148.514 Y97.521 E0.01494
G1 X156.531 Y105.538 E0.35595
G1 X156.593 Y105.066 E0.01494
G1 X148.986 Y97.459 E0.33776
G1 X149.052 Y97.450 E0.00209
G1 X149.581 Y97.520 E0.01675
G1 X156.532 Y104.471 E0.30863
G1 X156.451 Y103.856 E0.01947
G1 X150.196 Y97.601 E0.27774
G1 X150.811 Y97.682 E0.01947
G1 X156.370 Y103.241 E0.24684
G1 X156.345 Y103.046 E0.00618
G1 X156.087 Y102.424 E0.02114
G1 X151.628 Y97.965 E0.19797
G1 X152.540 Y98.343 E0.03098
G1 X156.023 Y101.826 E0.15465
G1 F8640
G1 X153.695 Y99.498 E-0.76000
G1 E-0.04000 F2100.00000
G1 Z0.800 F10800.000
G1 X151.080 Y88.516
G1 Z0.200
G1 E0.80000 F2100.00000
G1 F1200
G1 X149.052 Y88.783 E0.06413
G1 X147.024 Y88.516 E0.06413
G1 X145.134 Y87.734 E0.06413
G1 X143.511 Y86.489 E0.06413
G1 X142.266 Y84.866 E0.06413
G1 X141.484 Y82.976 E0.06413
G1 X141.217 Y80.948 E0.06413
G1 X141.484 Y78.920 E0.06413
G1 X142.266 Y77.031 E0.06413
G1 X143.511 Y75.408 E0.06413
G1 X145.134 Y74.163 E0.06413
G1 X147.024 Y73.380 E0.06413
G1 X149.052 Y73.113 E0.06413
G1 X149.297 Y73.145 E0.00776
G1 X151.080 Y73.380 E0.05638
G1 X152.969 Y74.163 E0.06413
G1 X154.592 Y75.408 E0.06413
G1 X155.837 Y77.031 E0.06413
G1 X156.620 Y78.920 E0.06413
G1 X156.887 Y80.948 E0.06413
G1 X156.620 Y82.976 E0.06413
G1 X155.837 Y84.866 E0.06413
G1 X154.592 Y86.489 E0.06413
G1 X152.969 Y87.734 E0.06413
G1 X151.135 Y88.494 E0.06225
G1 X151.279 Y88.842 F10800.000
G1 F1200
G1 X151.178 Y88.884 E0.00344
G1 X149.052 Y89.164 E0.06725
G1 X146.925 Y88.884 E0.06725
G1 X144.944 Y88.063 E0.06725
G1 X143.242 Y86.758 E0.06725
G1 X141.937 Y85.056 E0.06725
G1 X141.116 Y83.075 E0.06725
G1 X140.836 Y80.948 E0.06725
G1 X141.116 Y78.822 E0.06725
G1 X141.937 Y76.840 E0.06725
G1 X143.242 Y75.139 E0.06725
G1 X144.944 Y73.833 E0.06725
G1 X146.925 Y73.013 E0.06725
G1 X149.052 Y72.733 E0.06725
G1 X151.178 Y73.013 E0.06725
G1 X153.160 Y73.833 E0.06725
G1 X154.861 Y75.139 E0.06725
G1 X156.167 Y76.840 E0.06725
G1 X156.987 Y78.822 E0.06725
G1 X157.267 Y80.948 E0.06725
G1 X156.987 Y83.075 E0.06725
G1 X156.167 Y85.056 E0.06725
G1 X154.861 Y86.758 E0.06725
G1 X153.160 Y88.063 E0.06725
G1 X151.335 Y88.819 E0.06193
G1 X151.190 Y88.779 F10800.000
G1 F8640
G1 X151.178 Y88.884 E-0.03917
G1 X149.052 Y89.164 E-0.49522
G1 X148.083 Y89.036 E-0.22561
G1 E-0.04000 F2100.00000
G1 Z0.800 F10800.000
G1 X142.081 Y84.123
G1 Z0.200
G1 E0.80000 F2100.00000
G1 F1200
G1 X145.564 Y87.606 E0.15464
G1 X146.475 Y87.983 E0.03098
G1 X142.017 Y83.525 E0.19796
G1 X141.759 Y82.902 E0.02115
G1 X141.733 Y82.707 E0.00618
G1 X147.293 Y88.267 E0.24683
G1 X147.908 Y88.348 E0.01947
G1 X141.652 Y82.092 E0.27773
G1 X141.571 Y81.477 E0.01947
G1 X148.523 Y88.429 E0.30863
G1 X149.052 Y88.498 E0.01676
G1 X149.118 Y88.490 E0.00208
G1 X141.510 Y80.882 E0.33775
G1 X141.573 Y80.411 E0.01494
G1 X149.589 Y88.427 E0.35594
G1 X150.061 Y88.365 E0.01494
G1 X141.635 Y79.939 E0.37413
G1 X141.697 Y79.467 E0.01494
G1 X150.533 Y88.303 E0.39233
G1 X151.005 Y88.241 E0.01494
G1 X141.759 Y78.995 E0.41052
G1 X141.915 Y78.617 E0.01283
G1 X151.383 Y88.085 E0.42035
G1 X151.760 Y87.928 E0.01283
G1 X142.072 Y78.240 E0.43017
G1 X142.228 Y77.862 E0.01283
G1 X152.138 Y87.772 E0.43999
G1 X152.515 Y87.616 E0.01283
G1 X142.384 Y77.485 E0.44981
G1 X142.513 Y77.173 E0.01058
G1 X142.554 Y77.120 E0.00210
G1 X152.880 Y87.446 E0.45846
G1 X153.182 Y87.214 E0.01196
G1 X142.786 Y76.818 E0.46158
G1 X143.018 Y76.516 E0.01196
G1 X153.484 Y86.982 E0.46470
G1 X153.786 Y86.751 E0.01196
G1 X143.249 Y76.214 E0.46782
G1 X143.481 Y75.912 E0.01196
G1 X154.088 Y86.519 E0.47094
G1 X154.390 Y86.287 E0.01196
G1 X143.713 Y75.610 E0.47406
G1 X144.015 Y75.378 E0.01196
G1 X154.622 Y85.985 E0.47094
G1 X154.854 Y85.683 E0.01196
G1 X144.317 Y75.146 E0.46782
G1 X144.619 Y74.914 E0.01196
G1 X155.086 Y85.381 E0.46470
G1 X155.318 Y85.078 E0.01196
G1 X144.922 Y74.682 E0.46158
G1 X145.224 Y74.450 E0.01196
G1 X155.550 Y84.776 E0.45846
G1 X155.590 Y84.723 E0.00210
G1 X155.719 Y84.412 E0.01058
G1 X145.588 Y74.281 E0.44982
G1 X145.966 Y74.124 E0.01283
G1 X155.876 Y84.034 E0.44000
G1 X156.032 Y83.657 E0.01283
G1 X146.343 Y73.968 E0.43018
G1 X146.721 Y73.812 E0.01283
G1 X156.188 Y83.279 E0.42036
G1 X156.345 Y82.902 E0.01283
G1 X147.098 Y73.655 E0.41052
G1 X147.570 Y73.593 E0.01494
G1 X156.407 Y82.430 E0.39233
G1 X156.469 Y81.958 E0.01494
G1 X148.042 Y73.531 E0.37414
G1 X148.514 Y73.469 E0.01494
G1 X156.531 Y81.486 E0.35595
G1 X156.593 Y81.014 E0.01494
G1 X148.986 Y73.407 E0.33776
G1 X149.052 Y73.398 E0.00209
G1 X149.581 Y73.468 E0.01675
G1 X156.532 Y80.419 E0.30863
G1 X156.451 Y79.804 E0.01947
G1 X150.196 Y73.549 E0.27774
G1 X150.811 Y73.630 E0.01947
G1 X156.370 Y79.189 E0.24684
G1 X156.345 Y78.994 E0.00618
G1 X156.087 Y78.372 E0.02114
G1 X151.628 Y73.913 E0.19797
G1 X152.540 Y74.291 E0.03098
G1 X156.023 Y77.774 E0.15465
G1 F8640
G1 X153.695 Y75.447 E-0.76000
G1 E-0.04000 F2100.00000
G1 Z0.800 F10800.000
G1 X132.820 Y80.829
G1 Z0.200
G1 E0.80000 F2100.00000
G1 F1200
G1 X132.835 Y80.948 E0.00378
G1 X132.568 Y82.976 E0.06413
G1 X131.786 Y84.866 E0.06413
G1 X130.540 Y86.489 E0.06413
G1 X128.918 Y87.734 E0.06413
G1 X127.028 Y88.516 E0.06413
G1 X125.000 Y88.783 E0.06413
G1 X122.972 Y88.516 E0.06413
G1 X121.082 Y87.734 E0.06413
G1 X119.460 Y86.489 E0.06413
G1 X118.214 Y84.866 E0.06413
G1 X117.432 Y82.976 E0.06413
