; generated by Slic3r Prusa Edition 1.41.3+win64 on 2019-02-28 at 08:33:00

; 

; external perimeters extrusion width = 0.45mm
; perimeters extrusion width = 0.45mm
; infill extrusion width = 0.45mm
; solid infill extrusion width = 0.45mm
; top infill extrusion width = 0.40mm
; first layer extrusion width = 0.42mm

M73 P0 R99
M73 Q0 S101
M201 X1000 Y1000 Z1000 E5000 ; sets maximum accelerations, mm/sec^2
M203 X200 Y200 Z12 E120 ; sets maximum feedrates, mm/sec
M204 P1250 R1250 T1250 ; sets acceleration (P, T) and retract acceleration (R), mm/sec^2
M205 X8.00 Y8.00 Z0.40 E1.50 ; sets the jerk limits, mm/sec
M205 S0 T0 ; sets the minimum extruding and travel feed rate, mm/sec
M107
;M115 U3.5.1 ; tell printer latest fw version
M83  ; extruder relative mode
M104 S215 ; set extruder temp
M140 S60 ; set bed temp
M190 S60 ; wait for bed temp
M109 S215 ; wait for extruder temp
G28 W ; home all without mesh bed level
G80 ; mesh bed leveling
G1 Y-3.0 F1000.0 ; go outside print area
G92 E0.0
G1 X60.0 E9.0  F1000.0 ; intro line
M73 Q0 S101
M73 P0 R99
G1 X100.0 E12.5  F1000.0 ; intro line
G92 E0.0
M221 S95
M900 K30; Filament gcode
G21 ; set units to millimeters
G90 ; use absolute coordinates
M83 ; use relative distances for extrusion
;BEFORE_LAYER_CHANGE
G92 E0.0
;0.2


G1 E-0.80000 F2100.00000
G1 Z0.600 F10800.000
;AFTER_LAYER_CHANGE
;0.2
G1 X74.136 Y60.025
G1 Z0.200
G1 E0.80000 F2100.00000
M204 S1000
G1 F1200
G1 X74.852 Y58.585 E0.05044
G1 X75.190 Y58.128 E0.01783
G1 X76.362 Y56.994 E0.05114
G1 X77.807 Y56.228 E0.05125
G1 X78.346 Y56.048 E0.01783
G1 X79.945 Y55.812 E0.05067
G1 X170.004 Y55.811 E2.82374
G1 X171.975 Y56.136 E0.06263
G1 X173.419 Y56.853 E0.05055
G1 X173.885 Y57.203 E0.01828
G1 X175.006 Y58.362 E0.05057
G1 X175.769 Y59.800 E0.05102
G1 X175.950 Y60.335 E0.01771
G1 X176.186 Y61.890 E0.04930
G1 X176.188 Y148.033 E2.70096
G1 X175.864 Y149.975 E0.06173
G1 X175.148 Y151.415 E0.05044
G1 X174.810 Y151.872 E0.01783
G1 X173.638 Y153.006 E0.05114
G1 X172.190 Y153.774 E0.05136
G1 X171.647 Y153.954 E0.01794
G1 X170.023 Y154.188 E0.05146
G1 X79.967 Y154.188 E2.82363
G1 X78.025 Y153.864 E0.06173
G1 X76.585 Y153.148 E0.05044
G1 X76.128 Y152.810 E0.01783
G1 X74.994 Y151.638 E0.05114
G1 X74.226 Y150.190 E0.05136
G1 X74.046 Y149.647 E0.01794
G1 X73.812 Y148.023 E0.05146
G1 X73.812 Y61.967 E2.69821
G1 X74.126 Y60.084 E0.05985
; PURGING FINISHED
G1 F8640
G1 X74.852 Y58.585 E-0.38472
G1 X75.190 Y58.128 E-0.13128
G1 X75.950 Y57.393 E-0.24400
G1 E-0.04000 F2100.00000
G1 Z0.800 F10800.000
G1 X167.899 Y146.474
G1 Z0.200
G1 E0.80000 F2100.00000
G1 F1200
G1 X168.474 Y145.899 E0.02548
G1 X169.197 Y145.531 E0.02546
G1 X170.000 Y145.404 E0.02548
G1 X170.803 Y145.531 E0.02548
G1 X171.526 Y145.899 E0.02546
G1 X172.101 Y146.474 E0.02548
G1 X172.469 Y147.197 E0.02545
G1 X172.598 Y148.000 E0.02550
G1 X172.469 Y148.803 E0.02550
G1 X172.101 Y149.526 E0.02545
G1 X171.526 Y150.101 E0.02548
G1 X170.803 Y150.469 E0.02545
G1 X170.000 Y150.598 E0.02550
G1 X169.197 Y150.469 E0.02550
G1 X168.474 Y150.101 E0.02545
G1 X167.899 Y149.526 E0.02548
G1 X167.531 Y148.803 E0.02546
G1 X167.404 Y148.000 E0.02548
G1 X167.531 Y147.197 E0.02548
G1 X167.872 Y146.527 E0.02358
G1 X168.208 Y146.698 F10800.000
G1 F1200
G1 X168.698 Y146.208 E0.02174
G1 X169.315 Y145.894 E0.02172
G1 X170.000 Y145.785 E0.02173
G1 X170.685 Y145.894 E0.02173
G1 X171.302 Y146.208 E0.02172
G1 X171.792 Y146.698 E0.02173
G1 X172.106 Y147.315 E0.02171
G1 X172.216 Y148.000 E0.02174
G1 X172.106 Y148.685 E0.02174
G1 X171.792 Y149.302 E0.02171
G1 X171.302 Y149.792 E0.02173
G1 X170.685 Y150.106 E0.02171
G1 X170.000 Y150.216 E0.02174
G1 X169.315 Y150.106 E0.02174
G1 X168.698 Y149.792 E0.02171
G1 X168.208 Y149.302 E0.02173
G1 X167.894 Y148.685 E0.02172
G1 X167.785 Y148.000 E0.02173
G1 X167.894 Y147.315 E0.02173
G1 X168.181 Y146.752 E0.01983
G1 X168.045 Y146.333 F10800.000
G1 F8640
G1 X168.698 Y146.208 E-0.17331
G1 X169.315 Y145.894 E-0.15993
G1 X170.000 Y145.785 E-0.16006
G1 X170.685 Y145.894 E-0.16006
G1 X171.096 Y146.103 E-0.10664
G1 E-0.04000 F2100.00000
G1 Z0.800 F10800.000
G1 X139.163 Y106.413
G1 Z0.200
G1 E0.80000 F2100.00000
G1 F1200
G1 X168.587 Y106.413 E0.92256
G1 X168.587 Y144.945 E1.20815
G1 X167.998 Y145.245 E0.02072
G1 X167.245 Y145.998 E0.03341
G1 X166.945 Y146.587 E0.02072
G1 X126.413 Y146.587 E1.27085
G1 X126.413 Y109.413 E1.16557
G1 X134.954 Y109.413 E0.26779
G1 X136.361 Y109.190 E0.04469
G1 X137.590 Y108.564 E0.04322
G1 X138.564 Y107.590 E0.04321
G1 X139.136 Y106.466 E0.03952
G1 X139.395 Y106.790 F10800.000
G1 F1200
G1 X168.210 Y106.790 E0.90349
G1 X168.210 Y144.714 E1.18908
G1 X167.774 Y144.936 E0.01534
G1 X166.936 Y145.774 E0.03716
G1 X166.714 Y146.210 E0.01534
G1 X126.790 Y146.210 E1.25179
G1 X126.790 Y109.790 E1.14192
G1 X134.983 Y109.790 E0.25690
G1 X136.479 Y109.553 E0.04749
G1 X137.814 Y108.873 E0.04697
G1 X138.873 Y107.814 E0.04696
G1 X139.367 Y106.843 E0.03415
G1 X139.480 Y106.399 F10800.000
G1 F8640
G1 X142.659 Y106.837 E-0.76000
G1 E-0.04000 F2100.00000
G1 Z0.800 F10800.000
G1 X137.469 Y105.803
G1 Z0.200
G1 E0.80000 F2100.00000
G1 F1200
G1 X137.101 Y106.526 E0.02545
G1 X136.526 Y107.101 E0.02548
G1 X135.803 Y107.469 E0.02545
G1 X135.000 Y107.598 E0.02550
G1 X134.197 Y107.469 E0.02550
G1 X133.474 Y107.101 E0.02545
G1 X132.899 Y106.526 E0.02548
G1 X132.531 Y105.803 E0.02546
G1 X132.404 Y105.000 E0.02548
G1 X132.531 Y104.197 E0.02548
G1 X132.899 Y103.474 E0.02546
G1 X133.474 Y102.899 E0.02548
G1 X134.197 Y102.531 E0.02545
G1 X135.000 Y102.402 E0.02550
G1 X135.803 Y102.531 E0.02550
G1 X136.526 Y102.899 E0.02545
G1 X137.101 Y103.474 E0.02548
G1 X137.469 Y104.197 E0.02545
G1 X137.598 Y105.000 E0.02550
G1 X137.479 Y105.744 E0.02361
G1 X137.106 Y105.684 F10800.000
G1 F1200
G1 X136.792 Y106.302 E0.02173
G1 X136.302 Y106.792 E0.02173
G1 X135.685 Y107.106 E0.02171
G1 X135.000 Y107.216 E0.02174
G1 X134.315 Y107.106 E0.02174
G1 X133.698 Y106.792 E0.02171
G1 X133.208 Y106.302 E0.02173
G1 X132.894 Y105.685 E0.02172
G1 X132.785 Y105.000 E0.02173
G1 X132.894 Y104.315 E0.02173
G1 X133.208 Y103.698 E0.02172
G1 X133.698 Y103.208 E0.02173
G1 X134.315 Y102.894 E0.02171
G1 X135.000 Y102.784 E0.02174
G1 X135.685 Y102.894 E0.02174
G1 X136.302 Y103.208 E0.02171
G1 X136.792 Y103.698 E0.02173
G1 X137.106 Y104.315 E0.02171
G1 X137.216 Y105.000 E0.02174
G1 X137.116 Y105.625 E0.01984
G1 X137.374 Y105.981 F10800.000
G1 F8640
G1 X136.792 Y106.302 E-0.17328
G1 X136.302 Y106.792 E-0.16004
G1 X135.685 Y107.106 E-0.15989
G1 X135.000 Y107.216 E-0.16013
G1 X134.544 Y107.143 E-0.10666
G1 E-0.04000 F2100.00000
G1 Z0.800 F10800.000
G1 X117.596 Y105.000
G1 Z0.200
G1 E0.80000 F2100.00000
G1 F1200
G1 X117.469 Y105.803 E0.02548
G1 X117.101 Y106.526 E0.02546
G1 X116.526 Y107.101 E0.02548
G1 X115.803 Y107.469 E0.02545
G1 X115.000 Y107.598 E0.02550
G1 X114.197 Y107.469 E0.02550
G1 X113.474 Y107.101 E0.02545
G1 X112.899 Y106.526 E0.02548
G1 X112.531 Y105.803 E0.02545
G1 X112.402 Y105.000 E0.02550
G1 X112.531 Y104.197 E0.02550
G1 X112.899 Y103.474 E0.02545
G1 X113.474 Y102.899 E0.02548
G1 X114.197 Y102.531 E0.02545
G1 X115.000 Y102.402 E0.02550
G1 X115.803 Y102.531 E0.02550
G1 X116.526 Y102.899 E0.02545
G1 X117.101 Y103.474 E0.02548
G1 X117.469 Y104.197 E0.02546
G1 X117.587 Y104.941 E0.02359
G1 X117.215 Y105.000 F10800.000
G1 F1200
G1 X117.106 Y105.685 E0.02174
G1 X116.792 Y106.302 E0.02172
G1 X116.302 Y106.792 E0.02173
G1 X115.685 Y107.106 E0.02171
G1 X115.000 Y107.216 E0.02174
G1 X114.315 Y107.106 E0.02174
G1 X113.698 Y106.792 E0.02171
G1 X113.208 Y106.302 E0.02173
G1 X112.894 Y105.685 E0.02171
G1 X112.784 Y105.000 E0.02174
G1 X112.894 Y104.315 E0.02174
G1 X113.208 Y103.698 E0.02171
G1 X113.698 Y103.208 E0.02173
G1 X114.315 Y102.894 E0.02171
G1 X115.000 Y102.784 E0.02174
G1 X115.685 Y102.894 E0.02174
G1 X116.302 Y103.208 E0.02171
G1 X116.792 Y103.698 E0.02173
G1 X117.106 Y104.315 E0.02172
G1 X117.205 Y104.940 E0.01984
G1 X117.561 Y105.200 F10800.000
G1 F8640
G1 X117.106 Y105.685 E-0.17335
G1 X116.792 Y106.302 E-0.15993
G1 X116.302 Y106.792 E-0.16004
G1 X115.685 Y107.106 E-0.15989
G1 X115.228 Y107.179 E-0.10678
G1 E-0.04000 F2100.00000
G1 Z0.800 F10800.000
G1 X81.413 Y106.413
G1 Z0.200
G1 E0.80000 F2100.00000
G1 F1200
G1 X110.837 Y106.413 E0.92256
G1 X111.436 Y107.590 E0.04141
G1 X112.410 Y108.564 E0.04321
G1 X113.639 Y109.190 E0.04322
G1 X115.046 Y109.413 E0.04469
G1 X123.587 Y109.413 E0.26779
G1 X123.587 Y146.587 E1.16557
G1 X83.055 Y146.587 E1.27085
G1 X82.755 Y145.998 E0.02072
G1 X82.002 Y145.245 E0.03341
G1 X81.413 Y144.945 E0.02072
G1 X81.413 Y106.473 E1.20626
G1 X81.790 Y106.790 F10800.000
G1 F1200
G1 X110.605 Y106.790 E0.90349
G1 X111.127 Y107.814 E0.03603
G1 X112.186 Y108.873 E0.04696
G1 X113.521 Y109.553 E0.04697
G1 X115.017 Y109.790 E0.04749
G1 X123.210 Y109.790 E0.25690
G1 X123.210 Y146.210 E1.14192
G1 X83.286 Y146.210 E1.25179
M73 Q1 S100
M73 P1 R98
G1 X83.064 Y145.774 E0.01534
G1 X82.226 Y144.936 E0.03716
G1 X81.790 Y144.714 E0.01534
G1 X81.790 Y106.850 E1.18720
G1 X81.788 Y106.390 F10800.000
G1 F8640
G1 X85.081 Y106.843 E-0.76000
G1 E-0.04000 F2100.00000
G1 Z0.800 F10800.000
G1 X80.000 Y145.404
G1 Z0.200
G1 E0.80000 F2100.00000
G1 F1200
G1 X80.803 Y145.531 E0.02548
G1 X81.526 Y145.899 E0.02546
G1 X82.101 Y146.474 E0.02548
G1 X82.469 Y147.197 E0.02546
G1 X82.596 Y148.000 E0.02548
G1 X82.469 Y148.803 E0.02548
G1 X82.101 Y149.526 E0.02546
G1 X81.526 Y150.101 E0.02548
G1 X80.803 Y150.469 E0.02545
G1 X80.000 Y150.598 E0.02550
G1 X79.197 Y150.469 E0.02550
G1 X78.474 Y150.101 E0.02545
G1 X77.899 Y149.526 E0.02548
G1 X77.531 Y148.803 E0.02545
G1 X77.402 Y148.000 E0.02550
G1 X77.531 Y147.197 E0.02550
G1 X77.899 Y146.474 E0.02545
G1 X78.474 Y145.899 E0.02548
G1 X79.197 Y145.531 E0.02546
G1 X79.941 Y145.413 E0.02359
G1 X80.000 Y145.785 F10800.000
G1 F1200
G1 X80.685 Y145.894 E0.02174
G1 X81.302 Y146.208 E0.02172
G1 X81.792 Y146.698 E0.02173
G1 X82.106 Y147.315 E0.02172
G1 X82.215 Y148.000 E0.02173
G1 X82.106 Y148.685 E0.02173
G1 X81.792 Y149.302 E0.02172
G1 X81.302 Y149.792 E0.02173
G1 X80.685 Y150.106 E0.02171
G1 X80.000 Y150.216 E0.02174
G1 X79.315 Y150.106 E0.02174
G1 X78.698 Y149.792 E0.02171
G1 X78.208 Y149.302 E0.02173
G1 X77.894 Y148.685 E0.02171
G1 X77.784 Y148.000 E0.02174
G1 X77.894 Y147.315 E0.02174
G1 X78.208 Y146.698 E0.02171
G1 X78.698 Y146.208 E0.02173
G1 X79.315 Y145.894 E0.02172
G1 X79.940 Y145.795 E0.01984
G1 X80.200 Y145.439 F10800.000
G1 F8640
G1 X80.685 Y145.894 E-0.17335
G1 X81.302 Y146.208 E-0.15993
G1 X81.792 Y146.698 E-0.16004
G1 X82.106 Y147.315 E-0.15993
G1 X82.179 Y147.772 E-0.10674
G1 E-0.04000 F2100.00000
G1 Z0.800 F10800.000
G1 X81.413 Y103.587
G1 Z0.200
G1 E0.80000 F2100.00000
G1 F1200
G1 X81.413 Y65.055 E1.20815
G1 X82.002 Y64.755 E0.02072
G1 X82.755 Y64.002 E0.03341
G1 X83.055 Y63.413 E0.02072
G1 X123.587 Y63.413 E1.27085
G1 X123.587 Y100.587 E1.16557
G1 X115.046 Y100.587 E0.26779
G1 X113.639 Y100.810 E0.04469
G1 X112.410 Y101.436 E0.04322
G1 X111.436 Y102.410 E0.04321
G1 X110.837 Y103.587 E0.04141
G1 X81.473 Y103.587 E0.92068
G1 X81.790 Y103.210 F10800.000
G1 F1200
G1 X81.790 Y65.286 E1.18908
G1 X82.226 Y65.064 E0.01534
G1 X83.064 Y64.226 E0.03716
G1 X83.286 Y63.790 E0.01534
G1 X123.210 Y63.790 E1.25179
G1 X123.210 Y100.210 E1.14192
G1 X115.017 Y100.210 E0.25690
G1 X113.521 Y100.447 E0.04749
G1 X112.186 Y101.127 E0.04697
G1 X111.127 Y102.186 E0.04696
G1 X110.605 Y103.210 E0.03603
G1 X81.850 Y103.210 E0.90161
G1 X81.390 Y103.215 F10800.000
G1 F8640
G1 X81.845 Y99.919 E-0.76000
G1 E-0.04000 F2100.00000
G1 Z0.800 F10800.000
G1 X80.000 Y64.596
G1 Z0.200
G1 E0.80000 F2100.00000
G1 F1200
G1 X79.197 Y64.469 E0.02548
G1 X78.474 Y64.101 E0.02546
G1 X77.899 Y63.526 E0.02548
G1 X77.531 Y62.803 E0.02545
G1 X77.402 Y62.000 E0.02550
G1 X77.531 Y61.197 E0.02550
G1 X77.899 Y60.474 E0.02545
G1 X78.474 Y59.899 E0.02548
G1 X79.197 Y59.531 E0.02545
G1 X80.000 Y59.402 E0.02550
G1 X80.803 Y59.531 E0.02550
G1 X81.526 Y59.899 E0.02545
G1 X82.101 Y60.474 E0.02548
G1 X82.469 Y61.197 E0.02546
G1 X82.596 Y62.000 E0.02548
G1 X82.469 Y62.803 E0.02548
G1 X82.101 Y63.526 E0.02546
G1 X81.526 Y64.101 E0.02548
G1 X80.803 Y64.469 E0.02546
G1 X80.059 Y64.587 E0.02359
G1 X80.000 Y64.215 F10800.000
G1 F1200
G1 X79.315 Y64.106 E0.02174
G1 X78.698 Y63.792 E0.02172
G1 X78.208 Y63.302 E0.02173
G1 X77.894 Y62.685 E0.02171
G1 X77.784 Y62.000 E0.02174
G1 X77.894 Y61.315 E0.02174
G1 X78.208 Y60.698 E0.02171
G1 X78.698 Y60.208 E0.02173
G1 X79.315 Y59.894 E0.02171
G1 X80.000 Y59.784 E0.02174
G1 X80.685 Y59.894 E0.02174
G1 X81.302 Y60.208 E0.02171
G1 X81.792 Y60.698 E0.02173
G1 X82.106 Y61.315 E0.02172
G1 X82.215 Y62.000 E0.02173
G1 X82.106 Y62.685 E0.02173
G1 X81.792 Y63.302 E0.02172
G1 X81.302 Y63.792 E0.02173
G1 X80.685 Y64.106 E0.02172
G1 X80.060 Y64.205 E0.01984
G1 X79.800 Y64.561 F10800.000
G1 F8640
G1 X79.315 Y64.106 E-0.17335
G1 X78.698 Y63.792 E-0.15993
G1 X78.208 Y63.302 E-0.16004
G1 X77.894 Y62.685 E-0.15989
G1 X77.821 Y62.228 E-0.10678
G1 E-0.04000 F2100.00000
G1 Z0.800 F10800.000
G1 X126.413 Y63.413
G1 Z0.200
G1 E0.80000 F2100.00000
G1 F1200
G1 X166.943 Y63.413 E1.27079
G1 X167.248 Y64.005 E0.02089
G1 X167.998 Y64.755 E0.03326
G1 X168.587 Y65.055 E0.02072
G1 X168.587 Y103.587 E1.20815
G1 X139.163 Y103.587 E0.92256
G1 X138.564 Y102.410 E0.04141
G1 X137.590 Y101.436 E0.04321
G1 X136.361 Y100.810 E0.04322
G1 X134.954 Y100.587 E0.04469
G1 X126.413 Y100.587 E0.26779
G1 X126.413 Y63.473 E1.16369
G1 X126.790 Y63.790 F10800.000
G1 F1200
G1 X166.713 Y63.790 E1.25176
G1 X166.940 Y64.230 E0.01552
G1 X167.774 Y65.064 E0.03698
G1 X168.210 Y65.286 E0.01534
G1 X168.210 Y103.210 E1.18908
G1 X139.395 Y103.210 E0.90349
G1 X138.873 Y102.186 E0.03603
G1 X137.814 Y101.127 E0.04696
G1 X136.479 Y100.447 E0.04697
G1 X134.983 Y100.210 E0.04749
G1 X126.790 Y100.210 E0.25690
G1 X126.790 Y63.850 E1.14004
G1 X126.761 Y63.391 F10800.000
G1 F8640
G1 X130.081 Y63.845 E-0.76000
G1 E-0.04000 F2100.00000
G1 Z0.800 F10800.000
G1 X167.404 Y62.000
G1 Z0.200
G1 E0.80000 F2100.00000
G1 F1200
G1 X167.531 Y61.197 E0.02548
G1 X167.899 Y60.474 E0.02546
G1 X168.474 Y59.899 E0.02548
G1 X169.197 Y59.531 E0.02545
G1 X170.000 Y59.402 E0.02550
G1 X170.803 Y59.531 E0.02550
G1 X171.526 Y59.899 E0.02545
G1 X172.101 Y60.474 E0.02548
G1 X172.469 Y61.197 E0.02545
G1 X172.598 Y62.000 E0.02550
G1 X172.469 Y62.803 E0.02550
G1 X172.101 Y63.526 E0.02545
G1 X171.526 Y64.101 E0.02548
G1 X170.803 Y64.469 E0.02546
G1 X170.000 Y64.596 E0.02548
G1 X169.197 Y64.469 E0.02548
G1 X168.474 Y64.101 E0.02546
G1 X167.899 Y63.526 E0.02548
G1 X167.531 Y62.803 E0.02546
G1 X167.413 Y62.059 E0.02360
G1 X167.785 Y62.000 F10800.000
G1 F1200
G1 X167.894 Y61.315 E0.02174
G1 X168.208 Y60.698 E0.02172
G1 X168.698 Y60.208 E0.02173
G1 X169.315 Y59.894 E0.02171
G1 X170.000 Y59.784 E0.02174
G1 X170.685 Y59.894 E0.02174
G1 X171.302 Y60.208 E0.02171
G1 X171.792 Y60.698 E0.02173
G1 X172.106 Y61.315 E0.02171
G1 X172.216 Y62.000 E0.02174
G1 X172.106 Y62.685 E0.02174
G1 X171.792 Y63.302 E0.02171
G1 X171.302 Y63.792 E0.02173
G1 X170.685 Y64.106 E0.02172
G1 X170.000 Y64.215 E0.02173
G1 X169.315 Y64.106 E0.02173
G1 X168.698 Y63.792 E0.02172
G1 X168.208 Y63.302 E0.02173
G1 X167.894 Y62.685 E0.02172
G1 X167.795 Y62.060 E0.01984
G1 X167.439 Y61.800 F10800.000
G1 F8640
G1 X167.894 Y61.315 E-0.17335
G1 X168.208 Y60.698 E-0.15993
G1 X168.698 Y60.208 E-0.16004
G1 X169.315 Y59.894 E-0.15989
G1 X169.772 Y59.821 E-0.10678
G1 E-0.04000 F2100.00000
G1 Z0.800 F10800.000
G1 X166.945 Y60.587
G1 Z0.200
G1 E0.80000 F2100.00000
G1 F1200
G1 X167.245 Y59.998 E0.02072
G1 X167.998 Y59.245 E0.03341
G1 X168.948 Y58.761 E0.03341
G1 X170.000 Y58.594 E0.03341
G1 X171.047 Y58.760 E0.03322
G1 X172.002 Y59.245 E0.03359
G1 X172.755 Y59.998 E0.03340
G1 X173.239 Y60.948 E0.03341
G1 X173.406 Y62.000 E0.03341
G1 X173.239 Y63.052 E0.03341
G1 X172.755 Y64.002 E0.03341
G1 X172.002 Y64.755 E0.03341
G1 X171.413 Y65.055 E0.02072
G1 X171.413 Y144.945 E2.50489
G1 X172.002 Y145.245 E0.02072
G1 X172.755 Y145.998 E0.03341
G1 X173.239 Y146.948 E0.03341
G1 X173.406 Y148.000 E0.03341
G1 X173.239 Y149.052 E0.03341
G1 X172.755 Y150.002 E0.03341
