; generated by Slic3r Prusa Edition 1.41.3+win64 on 2019-02-28 at 08:32:38

; 

; external perimeters extrusion width = 0.45mm
; perimeters extrusion width = 0.45mm
; infill extrusion width = 0.45mm
; solid infill extrusion width = 0.45mm
; top infill extrusion width = 0.40mm
; first layer extrusion width = 0.42mm

M73 P0 R132
M73 Q0 S134
M201 X1000 Y1000 Z1000 E5000 ; sets maximum accelerations, mm/sec^2
M203 X200 Y200 Z12 E120 ; sets maximum feedrates, mm/sec
M204 P1250 R1250 T1250 ; sets acceleration (P, T) and retract acceleration (R), mm/sec^2
M205 X8.00 Y8.00 Z0.40 E1.50 ; sets the jerk limits, mm/sec
M205 S0 T0 ; sets the minimum extruding and travel feed rate, mm/sec
M107
;M115 U3.5.1 ; tell printer latest fw version
M83  ; extruder relative mode
M104 S215 ; set extruder temp
M140 S60 ; set bed temp
M190 S60 ; wait for bed temp
M109 S215 ; wait for extruder temp
G28 W ; home all without mesh bed level
G80 ; mesh bed leveling
G1 Y-3.0 F1000.0 ; go outside print area
G92 E0.0
G1 X60.0 E9.0  F1000.0 ; intro line
M73 Q0 S134
M73 P0 R132
G1 X100.0 E12.5  F1000.0 ; intro line
G92 E0.0
M221 S95
M900 K30; Filament gcode
G21 ; set units to millimeters
G90 ; use absolute coordinates
M83 ; use relative distances for extrusion
;BEFORE_LAYER_CHANGE
G92 E0.0
;0.2


G1 E-0.80000 F2100.00000
G1 Z0.600 F10800.000
;AFTER_LAYER_CHANGE
;0.2
G1 X76.510 Y56.890
G1 Z0.200
G1 E0.80000 F2100.00000
M204 S1000
G1 F1200
G1 X77.663 Y56.271 E0.04105
G1 X78.679 Y55.955 E0.03334
G1 X79.955 Y55.812 E0.04026
G1 X170.004 Y55.811 E2.82342
G1 X171.297 Y55.950 E0.04078
G1 X172.263 Y56.240 E0.03163
G1 X173.421 Y56.844 E0.04094
G1 X174.216 Y57.470 E0.03174
G1 X175.068 Y58.450 E0.04071
G1 X175.581 Y59.327 E0.03185
G1 X176.017 Y60.558 E0.04094
G1 X176.175 Y61.598 E0.03300
G1 X176.188 Y148.040 E2.71033
G1 X176.049 Y149.304 E0.03987
G1 X175.755 Y150.277 E0.03185
G1 X175.152 Y151.427 E0.04071
G1 X174.500 Y152.248 E0.03288
G1 X173.490 Y153.110 E0.04163
G1 X172.330 Y153.732 E0.04128
G1 X171.311 Y154.047 E0.03345
G1 X170.005 Y154.189 E0.04117
G1 X79.960 Y154.188 E2.82331
G1 X78.692 Y154.048 E0.03998
G1 X77.723 Y153.755 E0.03174
G1 X76.573 Y153.152 E0.04072
G1 X75.752 Y152.500 E0.03288
G1 X74.890 Y151.490 E0.04163
G1 X74.268 Y150.330 E0.04128
G1 X73.953 Y149.311 E0.03345
G1 X73.811 Y148.005 E0.04117
G1 X73.812 Y61.960 E2.69789
G1 X73.952 Y60.692 E0.03998
G1 X74.245 Y59.723 E0.03174
G1 X74.848 Y58.573 E0.04071
G1 X75.500 Y57.752 E0.03288
G1 X76.464 Y56.929 E0.03974
; PURGING FINISHED
G1 F8640
G1 X77.663 Y56.271 E-0.31589
G1 X78.679 Y55.955 E-0.24551
G1 X79.533 Y55.859 E-0.19860
G1 E-0.04000 F2100.00000
G1 Z0.800 F10800.000
G1 X106.874 Y130.663
G1 Z0.200
G1 E0.80000 F2100.00000
G1 F1200
G1 X111.791 Y133.502 E0.17803
G1 X111.791 Y139.180 E0.17803
G1 X106.874 Y142.019 E0.17803
G1 X101.957 Y139.180 E0.17803
G1 X101.957 Y133.502 E0.17803
G1 X106.822 Y130.693 E0.17615
G1 X106.874 Y131.099 F10800.000
G1 F1200
G1 X111.414 Y133.720 E0.16437
G1 X111.414 Y138.962 E0.16437
G1 X106.874 Y141.583 E0.16437
G1 X102.334 Y138.962 E0.16437
G1 X102.334 Y133.720 E0.16437
G1 X106.822 Y131.129 E0.16249
G1 X107.074 Y130.752 F10800.000
G1 F8640
G1 X109.689 Y132.746 E-0.76000
G1 E-0.04000 F2100.00000
G1 Z0.800 F10800.000
G1 X101.791 Y133.502
G1 Z0.200
G1 E0.80000 F2100.00000
G1 F1200
G1 X101.791 Y139.180 E0.17803
G1 X96.874 Y142.019 E0.17803
G1 X91.957 Y139.180 E0.17803
G1 X91.957 Y133.502 E0.17803
G1 X96.874 Y130.663 E0.17803
G1 X101.739 Y133.472 E0.17615
G1 X101.414 Y133.720 F10800.000
G1 F1200
G1 X101.414 Y138.962 E0.16437
G1 X96.874 Y141.583 E0.16437
G1 X92.334 Y138.962 E0.16437
G1 X92.334 Y133.720 E0.16437
G1 X96.874 Y131.099 E0.16437
G1 X101.362 Y133.690 E0.16249
G1 X101.814 Y133.720 F10800.000
G1 F8640
G1 X101.395 Y136.981 E-0.76000
G1 E-0.04000 F2100.00000
G1 Z0.800 F10800.000
G1 X91.791 Y133.690
G1 Z0.200
G1 E0.80000 F2100.00000
G1 F1200
G1 X91.791 Y139.180 E0.17214
G1 X86.874 Y142.019 E0.17803
G1 X81.957 Y139.180 E0.17803
G1 X81.957 Y133.502 E0.17803
G1 X86.874 Y130.663 E0.17803
G1 X91.791 Y133.502 E0.17803
G1 X91.791 Y133.630 E0.00400
G1 X91.414 Y133.720 F10800.000
G1 F1200
G1 X91.414 Y138.962 E0.16437
G1 X86.874 Y141.583 E0.16437
G1 X82.334 Y138.962 E0.16437
G1 X82.334 Y133.720 E0.16437
G1 X86.874 Y131.099 E0.16437
G1 X91.362 Y133.690 E0.16249
G1 X91.814 Y133.720 F10800.000
G1 F8640
G1 X91.395 Y136.981 E-0.76000
G1 E-0.04000 F2100.00000
G1 Z0.800 F10800.000
G1 X86.791 Y130.180
G1 Z0.200
G1 E0.80000 F2100.00000
G1 F1200
G1 X81.913 Y132.996 E0.17662
G1 X81.913 Y121.686 E0.35464
G1 X86.791 Y124.502 E0.17662
G1 X86.791 Y130.120 E0.17615
G1 X86.414 Y129.962 F10800.000
G1 F1200
G1 X82.290 Y132.343 E0.14931
G1 X82.290 Y122.339 E0.31369
G1 X86.414 Y124.720 E0.14931
G1 X86.414 Y129.902 E0.16249
G1 X86.611 Y130.310 F10800.000
G1 F8640
G1 X83.582 Y131.579 E-0.76000
G1 E-0.04000 F2100.00000
G1 Z0.800 F10800.000
G1 X91.874 Y121.663
G1 Z0.200
G1 E0.80000 F2100.00000
G1 F1200
G1 X96.791 Y124.502 E0.17803
G1 X96.791 Y130.180 E0.17803
G1 X91.874 Y133.019 E0.17803
G1 X86.957 Y130.180 E0.17803
G1 X86.957 Y124.502 E0.17803
G1 X91.822 Y121.693 E0.17615
G1 X91.874 Y122.099 F10800.000
G1 F1200
G1 X96.414 Y124.720 E0.16437
G1 X96.414 Y129.962 E0.16437
G1 X91.874 Y132.583 E0.16437
G1 X87.334 Y129.962 E0.16437
G1 X87.334 Y124.720 E0.16437
G1 X91.822 Y122.129 E0.16249
G1 X92.074 Y121.752 F10800.000
G1 F8640
G1 X94.689 Y123.746 E-0.76000
G1 E-0.04000 F2100.00000
G1 Z0.800 F10800.000
G1 X96.957 Y124.502
G1 Z0.200
G1 E0.80000 F2100.00000
G1 F1200
G1 X101.874 Y121.663 E0.17803
G1 X106.791 Y124.502 E0.17803
G1 X106.791 Y130.180 E0.17803
G1 X101.874 Y133.019 E0.17803
G1 X96.957 Y130.180 E0.17803
G1 X96.957 Y124.562 E0.17615
G1 X97.334 Y124.720 F10800.000
G1 F1200
G1 X101.874 Y122.099 E0.16437
G1 X106.414 Y124.720 E0.16437
G1 X106.414 Y129.962 E0.16437
G1 X101.874 Y132.583 E0.16437
G1 X97.334 Y129.962 E0.16437
G1 X97.334 Y124.780 E0.16249
G1 X97.134 Y124.373 F10800.000
G1 F8640
G1 X100.168 Y123.106 E-0.76000
G1 E-0.04000 F2100.00000
G1 Z0.800 F10800.000
G1 X111.874 Y121.663
G1 Z0.200
G1 E0.80000 F2100.00000
G1 F1200
G1 X116.791 Y124.502 E0.17803
G1 X116.791 Y130.180 E0.17803
G1 X111.874 Y133.019 E0.17803
G1 X106.957 Y130.180 E0.17803
G1 X106.957 Y124.502 E0.17803
G1 X111.822 Y121.693 E0.17615
G1 X111.874 Y122.099 F10800.000
G1 F1200
G1 X116.414 Y124.720 E0.16437
G1 X116.414 Y129.962 E0.16437
G1 X111.874 Y132.583 E0.16437
G1 X107.334 Y129.962 E0.16437
G1 X107.334 Y124.720 E0.16437
G1 X111.822 Y122.129 E0.16249
G1 X112.074 Y121.752 F10800.000
G1 F8640
G1 X114.689 Y123.746 E-0.76000
G1 E-0.04000 F2100.00000
G1 Z0.800 F10800.000
G1 X116.957 Y124.502
G1 Z0.200
G1 E0.80000 F2100.00000
G1 F1200
G1 X121.874 Y121.663 E0.17803
G1 X126.791 Y124.502 E0.17803
G1 X126.791 Y130.180 E0.17803
G1 X121.874 Y133.019 E0.17803
G1 X116.957 Y130.180 E0.17803
G1 X116.957 Y124.562 E0.17615
G1 X117.334 Y124.720 F10800.000
G1 F1200
G1 X121.874 Y122.099 E0.16437
G1 X126.414 Y124.720 E0.16437
G1 X126.414 Y129.962 E0.16437
G1 X121.874 Y132.583 E0.16437
G1 X117.334 Y129.962 E0.16437
G1 X117.334 Y124.780 E0.16249
G1 X117.134 Y124.373 F10800.000
G1 F8640
G1 X120.168 Y123.106 E-0.76000
G1 E-0.04000 F2100.00000
G1 Z0.800 F10800.000
G1 X131.874 Y121.663
G1 Z0.200
G1 E0.80000 F2100.00000
G1 F1200
G1 X136.791 Y124.502 E0.17803
G1 X136.791 Y130.180 E0.17803
G1 X131.874 Y133.019 E0.17803
G1 X126.957 Y130.180 E0.17803
G1 X126.957 Y124.502 E0.17803
G1 X131.822 Y121.693 E0.17615
G1 X131.874 Y122.099 F10800.000
G1 F1200
G1 X136.414 Y124.720 E0.16437
G1 X136.414 Y129.962 E0.16437
G1 X131.874 Y132.583 E0.16437
G1 X127.334 Y129.962 E0.16437
G1 X127.334 Y124.720 E0.16437
G1 X131.822 Y122.129 E0.16249
G1 X132.074 Y121.752 F10800.000
G1 F8640
G1 X134.689 Y123.746 E-0.76000
G1 E-0.04000 F2100.00000
G1 Z0.800 F10800.000
G1 X136.957 Y124.502
G1 Z0.200
G1 E0.80000 F2100.00000
G1 F1200
G1 X141.874 Y121.663 E0.17803
G1 X146.791 Y124.502 E0.17803
G1 X146.791 Y130.180 E0.17803
G1 X141.874 Y133.019 E0.17803
G1 X136.957 Y130.180 E0.17803
G1 X136.957 Y124.562 E0.17615
G1 X137.334 Y124.720 F10800.000
G1 F1200
G1 X141.874 Y122.099 E0.16437
G1 X146.414 Y124.720 E0.16437
M73 Q0 S133
G1 X146.414 Y129.962 E0.16437
G1 X141.874 Y132.583 E0.16437
M73 P0 R131
G1 X137.334 Y129.962 E0.16437
G1 X137.334 Y124.780 E0.16249
G1 X137.134 Y124.373 F10800.000
G1 F8640
G1 X140.168 Y123.106 E-0.76000
G1 E-0.04000 F2100.00000
G1 Z0.800 F10800.000
G1 X146.957 Y124.502
G1 Z0.200
G1 E0.80000 F2100.00000
G1 F1200
G1 X151.874 Y121.663 E0.17803
G1 X156.791 Y124.502 E0.17803
G1 X156.791 Y130.180 E0.17803
G1 X151.874 Y133.019 E0.17803
G1 X146.957 Y130.180 E0.17803
G1 X146.957 Y124.562 E0.17615
G1 X147.334 Y124.720 F10800.000
G1 F1200
G1 X151.874 Y122.099 E0.16437
G1 X156.414 Y124.720 E0.16437
G1 X156.414 Y129.962 E0.16437
G1 X151.874 Y132.583 E0.16437
G1 X147.334 Y129.962 E0.16437
G1 X147.334 Y124.780 E0.16249
G1 X147.134 Y124.373 F10800.000
G1 F8640
G1 X150.168 Y123.106 E-0.76000
G1 E-0.04000 F2100.00000
G1 Z0.800 F10800.000
G1 X146.874 Y130.663
G1 Z0.200
G1 E0.80000 F2100.00000
G1 F1200
G1 X151.791 Y133.502 E0.17803
G1 X151.791 Y139.180 E0.17803
G1 X146.874 Y142.019 E0.17803
G1 X141.957 Y139.180 E0.17803
G1 X141.957 Y133.502 E0.17803
G1 X146.822 Y130.693 E0.17615
G1 X146.874 Y131.099 F10800.000
G1 F1200
G1 X151.414 Y133.720 E0.16437
G1 X151.414 Y138.962 E0.16437
G1 X146.874 Y141.583 E0.16437
G1 X142.334 Y138.962 E0.16437
G1 X142.334 Y133.720 E0.16437
G1 X146.822 Y131.129 E0.16249
G1 X147.074 Y130.752 F10800.000
G1 F8640
G1 X149.689 Y132.746 E-0.76000
G1 E-0.04000 F2100.00000
G1 Z0.800 F10800.000
G1 X151.957 Y133.502
G1 Z0.200
G1 E0.80000 F2100.00000
G1 F1200
G1 X156.874 Y130.663 E0.17803
G1 X161.791 Y133.502 E0.17803
G1 X161.791 Y139.180 E0.17803
G1 X156.874 Y142.019 E0.17803
G1 X151.957 Y139.180 E0.17803
G1 X151.957 Y133.562 E0.17615
G1 X152.334 Y133.720 F10800.000
G1 F1200
G1 X156.874 Y131.099 E0.16437
G1 X161.414 Y133.720 E0.16437
G1 X161.414 Y138.962 E0.16437
G1 X156.874 Y141.583 E0.16437
G1 X152.334 Y138.962 E0.16437
G1 X152.334 Y133.780 E0.16249
G1 X152.134 Y133.373 F10800.000
G1 F8640
G1 X155.168 Y132.106 E-0.76000
G1 E-0.04000 F2100.00000
G1 Z0.800 F10800.000
G1 X156.957 Y130.180
G1 Z0.200
G1 E0.80000 F2100.00000
G1 F1200
G1 X156.957 Y124.502 E0.17803
G1 X161.874 Y121.663 E0.17803
G1 X166.791 Y124.502 E0.17803
G1 X166.791 Y130.180 E0.17803
G1 X161.874 Y133.019 E0.17803
G1 X157.009 Y130.210 E0.17615
G1 X157.334 Y129.962 F10800.000
G1 F1200
G1 X157.334 Y124.720 E0.16437
G1 X161.874 Y122.099 E0.16437
G1 X166.414 Y124.720 E0.16437
G1 X166.414 Y129.962 E0.16437
G1 X161.874 Y132.583 E0.16437
G1 X157.386 Y129.992 E0.16249
G1 X156.934 Y129.962 F10800.000
G1 F8640
G1 X157.353 Y126.701 E-0.76000
G1 E-0.04000 F2100.00000
G1 Z0.800 F10800.000
G1 X156.874 Y124.019
G1 Z0.200
G1 E0.80000 F2100.00000
G1 F1200
G1 X151.957 Y121.180 E0.17803
G1 X151.957 Y115.502 E0.17803
G1 X156.874 Y112.663 E0.17803
G1 X161.791 Y115.502 E0.17803
G1 X161.791 Y121.180 E0.17803
G1 X156.926 Y123.989 E0.17615
G1 X156.874 Y123.583 F10800.000
G1 F1200
G1 X152.334 Y120.962 E0.16437
G1 X152.334 Y115.720 E0.16437
G1 X156.874 Y113.099 E0.16437
G1 X161.414 Y115.720 E0.16437
G1 X161.414 Y120.962 E0.16437
G1 X156.926 Y123.553 E0.16249
G1 X156.674 Y123.930 F10800.000
G1 F8640
G1 X154.059 Y121.936 E-0.76000
G1 E-0.04000 F2100.00000
G1 Z0.800 F10800.000
G1 X151.791 Y121.180
G1 Z0.200
G1 E0.80000 F2100.00000
G1 F1200
G1 X146.874 Y124.019 E0.17803
G1 X141.957 Y121.180 E0.17803
G1 X141.957 Y115.502 E0.17803
G1 X146.874 Y112.663 E0.17803
G1 X151.791 Y115.502 E0.17803
G1 X151.791 Y121.120 E0.17615
G1 X151.414 Y120.962 F10800.000
G1 F1200
G1 X146.874 Y123.583 E0.16437
G1 X142.334 Y120.962 E0.16437
G1 X142.334 Y115.720 E0.16437
G1 X146.874 Y113.099 E0.16437
G1 X151.414 Y115.720 E0.16437
G1 X151.414 Y120.902 E0.16249
G1 X151.614 Y121.309 F10800.000
G1 F8640
G1 X148.580 Y122.576 E-0.76000
G1 E-0.04000 F2100.00000
G1 Z0.800 F10800.000
G1 X151.874 Y115.019
G1 Z0.200
G1 E0.80000 F2100.00000
G1 F1200
G1 X146.957 Y112.180 E0.17803
G1 X146.957 Y106.502 E0.17803
G1 X151.874 Y103.663 E0.17803
G1 X156.791 Y106.502 E0.17803
G1 X156.791 Y112.180 E0.17803
G1 X151.926 Y114.989 E0.17615
G1 X151.874 Y114.583 F10800.000
G1 F1200
G1 X147.334 Y111.962 E0.16437
G1 X147.334 Y106.720 E0.16437
G1 X151.874 Y104.099 E0.16437
G1 X156.414 Y106.720 E0.16437
G1 X156.414 Y111.962 E0.16437
G1 X151.926 Y114.553 E0.16249
G1 X151.674 Y114.930 F10800.000
G1 F8640
G1 X149.059 Y112.936 E-0.76000
G1 E-0.04000 F2100.00000
G1 Z0.800 F10800.000
G1 X146.791 Y112.180
G1 Z0.200
G1 E0.80000 F2100.00000
G1 F1200
G1 X141.874 Y115.019 E0.17803
G1 X136.957 Y112.180 E0.17803
G1 X136.957 Y106.502 E0.17803
G1 X141.874 Y103.663 E0.17803
G1 X146.791 Y106.502 E0.17803
G1 X146.791 Y112.120 E0.17615
G1 X146.414 Y111.962 F10800.000
G1 F1200
G1 X141.874 Y114.583 E0.16437
G1 X137.334 Y111.962 E0.16437
G1 X137.334 Y106.720 E0.16437
G1 X141.874 Y104.099 E0.16437
G1 X146.414 Y106.720 E0.16437
G1 X146.414 Y111.902 E0.16249
G1 X146.614 Y112.309 F10800.000
G1 F8640
G1 X143.580 Y113.576 E-0.76000
G1 E-0.04000 F2100.00000
G1 Z0.800 F10800.000
G1 X131.874 Y103.663
G1 Z0.200
G1 E0.80000 F2100.00000
G1 F1200
G1 X136.791 Y106.502 E0.17803
G1 X136.791 Y112.180 E0.17803
G1 X131.874 Y115.019 E0.17803
G1 X126.957 Y112.180 E0.17803
G1 X126.957 Y106.502 E0.17803
G1 X131.822 Y103.693 E0.17615
G1 X131.874 Y104.099 F10800.000
G1 F1200
G1 X136.414 Y106.720 E0.16437
G1 X136.414 Y111.962 E0.16437
G1 X131.874 Y114.583 E0.16437
G1 X127.334 Y111.962 E0.16437
G1 X127.334 Y106.720 E0.16437
G1 X131.822 Y104.129 E0.16249
G1 X132.074 Y103.752 F10800.000
G1 F8640
G1 X134.689 Y105.746 E-0.76000
G1 E-0.04000 F2100.00000
G1 Z0.800 F10800.000
G1 X126.791 Y106.502
G1 Z0.200
G1 E0.80000 F2100.00000
G1 F1200
G1 X126.791 Y112.180 E0.17803
G1 X121.874 Y115.019 E0.17803
G1 X116.957 Y112.180 E0.17803
G1 X116.957 Y106.502 E0.17803
G1 X121.874 Y103.663 E0.17803
G1 X126.739 Y106.472 E0.17615
G1 X126.414 Y106.720 F10800.000
G1 F1200
G1 X126.414 Y111.962 E0.16437
G1 X121.874 Y114.583 E0.16437
G1 X117.334 Y111.962 E0.16437
G1 X117.334 Y106.720 E0.16437
G1 X121.874 Y104.099 E0.16437
G1 X126.362 Y106.690 E0.16249
G1 X126.814 Y106.720 F10800.000
G1 F8640
G1 X126.395 Y109.981 E-0.76000
G1 E-0.04000 F2100.00000
G1 Z0.800 F10800.000
G1 X116.791 Y106.690
G1 Z0.200
G1 E0.80000 F2100.00000
G1 F1200
G1 X116.791 Y112.180 E0.17214
G1 X111.874 Y115.019 E0.17803
G1 X106.957 Y112.180 E0.17803
G1 X106.957 Y106.502 E0.17803
G1 X111.874 Y103.663 E0.17803
G1 X116.791 Y106.502 E0.17803
G1 X116.791 Y106.630 E0.00400
G1 X116.414 Y106.720 F10800.000
G1 F1200
G1 X116.414 Y111.962 E0.16437
G1 X111.874 Y114.583 E0.16437
G1 X107.334 Y111.962 E0.16437
G1 X107.334 Y106.720 E0.16437
G1 X111.874 Y104.099 E0.16437
G1 X116.362 Y106.690 E0.16249
G1 X116.814 Y106.720 F10800.000
G1 F8640
G1 X116.395 Y109.981 E-0.76000
G1 E-0.04000 F2100.00000
G1 Z0.800 F10800.000
G1 X106.791 Y106.690
G1 Z0.200
G1 E0.80000 F2100.00000
G1 F1200
G1 X106.791 Y112.180 E0.17214
G1 X101.874 Y115.019 E0.17803
G1 X96.957 Y112.180 E0.17803
G1 X96.957 Y106.502 E0.17803
G1 X101.874 Y103.663 E0.17803
G1 X106.791 Y106.502 E0.17803
G1 X106.791 Y106.630 E0.00400
G1 X106.414 Y106.720 F10800.000
G1 F1200
G1 X106.414 Y111.962 E0.16437
G1 X101.874 Y114.583 E0.16437
G1 X97.334 Y111.962 E0.16437
G1 X97.334 Y106.720 E0.16437
G1 X101.874 Y104.099 E0.16437
G1 X106.362 Y106.690 E0.16249
G1 X106.814 Y106.720 F10800.000
G1 F8640
G1 X106.395 Y109.981 E-0.76000
G1 E-0.04000 F2100.00000
G1 Z0.800 F10800.000
G1 X96.791 Y106.690
G1 Z0.200
G1 E0.80000 F2100.00000
G1 F1200
G1 X96.791 Y112.180 E0.17214
G1 X91.874 Y115.019 E0.17803
G1 X86.957 Y112.180 E0.17803
G1 X86.957 Y106.502 E0.17803
G1 X91.874 Y103.663 E0.17803
G1 X96.791 Y106.502 E0.17803
G1 X96.791 Y106.630 E0.00400
G1 X96.414 Y106.720 F10800.000
G1 F1200
G1 X96.414 Y111.962 E0.16437
G1 X91.874 Y114.583 E0.16437
G1 X87.334 Y111.962 E0.16437
G1 X87.334 Y106.720 E0.16437
G1 X91.874 Y104.099 E0.16437
G1 X96.362 Y106.690 E0.16249
G1 X96.814 Y106.720 F10800.000
G1 X96.781 Y105.965
G1 F1200
G1 X91.957 Y103.180 E0.17465
G1 X91.957 Y97.502 E0.17803
