; generated by Slic3r Prusa Edition 1.41.3+win64 on 2019-02-28 at 08:32:11

; 

; external perimeters extrusion width = 0.45mm
; perimeters extrusion width = 0.45mm
; infill extrusion width = 0.45mm
; solid infill extrusion width = 0.45mm
; top infill extrusion width = 0.40mm
; first layer extrusion width = 0.42mm

M73 P0 R38
M73 Q0 S39
M201 X1000 Y1000 Z1000 E5000 ; sets maximum accelerations, mm/sec^2
M203 X200 Y200 Z12 E120 ; sets maximum feedrates, mm/sec
M204 P1250 R1250 T1250 ; sets acceleration (P, T) and retract acceleration (R), mm/sec^2
M205 X8.00 Y8.00 Z0.40 E1.50 ; sets the jerk limits, mm/sec
M205 S0 T0 ; sets the minimum extruding and travel feed rate, mm/sec
M107
;M115 U3.5.1 ; tell printer latest fw version
M83  ; extruder relative mode
M104 S215 ; set extruder temp
M140 S60 ; set bed temp
M190 S60 ; wait for bed temp
M109 S215 ; wait for extruder temp
G28 W ; home all without mesh bed level
G80 ; mesh bed leveling
G1 Y-3.0 F1000.0 ; go outside print area
G92 E0.0
G1 X60.0 E9.0  F1000.0 ; intro line
M73 Q0 S38
M73 P0 R38
G1 X100.0 E12.5  F1000.0 ; intro line
G92 E0.0
M221 S95
M900 K30; Filament gcode
G21 ; set units to millimeters
G90 ; use absolute coordinates
M83 ; use relative distances for extrusion
;BEFORE_LAYER_CHANGE
G92 E0.0
;0.2


G1 E-0.80000 F2100.00000
G1 Z0.600 F10800.000
;AFTER_LAYER_CHANGE
;0.2
G1 X112.614 Y94.057
G1 Z0.200
G1 E0.80000 F2100.00000
M204 S1000
G1 F1200
G1 X113.080 Y93.299 E0.02790
G1 X113.457 Y92.950 E0.01610
G1 X113.900 Y92.682 E0.01623
G1 X114.387 Y92.509 E0.01623
G1 X114.899 Y92.436 E0.01623
G1 X135.004 Y92.434 E0.63036
G1 X135.936 Y92.611 E0.02973
G1 X136.742 Y93.117 E0.02985
G1 X137.309 Y93.882 E0.02985
G1 X137.558 Y94.797 E0.02973
G1 X137.565 Y115.075 E0.63582
G1 X137.386 Y115.943 E0.02778
G1 X136.920 Y116.701 E0.02790
G1 X136.527 Y117.061 E0.01672
G1 X136.065 Y117.334 E0.01684
G1 X135.559 Y117.504 E0.01672
G1 X135.025 Y117.565 E0.01684
G1 X114.925 Y117.565 E0.63024
G1 X114.057 Y117.386 E0.02778
G1 X113.299 Y116.920 E0.02790
G1 X112.939 Y116.527 E0.01672
G1 X112.666 Y116.065 E0.01684
G1 X112.496 Y115.559 E0.01672
G1 X112.435 Y115.025 E0.01684
G1 X112.435 Y94.925 E0.63024
G1 X112.602 Y94.116 E0.02590
G1 F8640
G1 X113.080 Y93.299 E-0.21853
G1 X113.457 Y92.950 E-0.11859
G1 X113.900 Y92.682 E-0.11949
G1 X114.387 Y92.509 E-0.11949
G1 X114.899 Y92.436 E-0.11949
G1 X115.178 Y92.436 E-0.06440
G1 E-0.04000 F2100.00000
G1 Z0.800 F10800.000
G1 X114.074 Y93.017
G1 Z0.200
G1 E0.80000 F2100.00000
G1 F1200
G1 X114.925 Y92.813 E0.02743
G1 X135.004 Y92.811 E0.62956
G1 X135.803 Y92.964 E0.02552
G1 X136.494 Y93.401 E0.02563
G1 X136.975 Y94.057 E0.02552
G1 X137.183 Y94.848 E0.02563
G1 X137.188 Y115.055 E0.63357
G1 X137.033 Y115.810 E0.02417
G1 X136.626 Y116.465 E0.02417
G1 X135.899 Y116.995 E0.02822
G1 X135.017 Y117.188 E0.02833
G1 X114.942 Y117.188 E0.62945
G1 X114.187 Y117.032 E0.02417
G1 X113.535 Y116.626 E0.02405
G1 X113.005 Y115.899 E0.02822
G1 X112.812 Y115.017 E0.02833
G1 X112.812 Y94.942 E0.62945
G1 X112.968 Y94.187 E0.02417
G1 X113.374 Y93.535 E0.02405
G1 X114.026 Y93.053 E0.02544
; PURGING FINISHED
G1 F8640
G1 X114.925 Y92.813 E-0.21483
G1 X117.286 Y92.813 E-0.54517
G1 E-0.04000 F2100.00000
G1 Z0.800 F10800.000
G1 X115.587 Y95.587
G1 Z0.200
G1 E0.80000 F2100.00000
G1 F1200
G1 X134.413 Y95.587 E0.59027
G1 X134.413 Y114.413 E0.59027
G1 X115.587 Y114.413 E0.59027
G1 X115.587 Y95.647 E0.58839
G1 X115.210 Y95.210 F10800.000
G1 F1200
G1 X134.790 Y95.210 E0.61392
G1 X134.790 Y114.790 E0.61392
G1 X115.210 Y114.790 E0.61392
G1 X115.210 Y95.270 E0.61204
G1 X115.596 Y95.314 F10800.000
G1 F8640
G1 X118.501 Y95.260 E-0.76000
G1 E-0.04000 F2100.00000
G1 Z0.800 F10800.000
G1 X115.700 Y113.527
G1 Z0.200
G1 E0.80000 F2100.00000
G1 F1200
G1 X116.303 Y114.130 E0.02708
G1 X116.843 Y114.130 E0.01716
G1 X115.870 Y113.157 E0.04372
G1 X115.870 Y112.617 E0.01716
G1 X117.383 Y114.130 E0.06799
G1 X117.924 Y114.130 E0.01716
G1 X115.870 Y112.076 E0.09226
G1 X115.870 Y111.536 E0.01716
G1 X118.464 Y114.130 E0.11652
G1 X119.004 Y114.130 E0.01716
G1 X115.870 Y110.996 E0.14079
G1 X115.870 Y110.456 E0.01716
G1 X119.544 Y114.130 E0.16505
G1 X120.085 Y114.130 E0.01716
G1 X115.870 Y109.915 E0.18932
G1 X115.870 Y109.375 E0.01716
G1 X120.625 Y114.130 E0.21358
G1 X121.165 Y114.130 E0.01716
G1 X115.870 Y108.835 E0.23785
G1 X115.870 Y108.295 E0.01716
G1 X121.705 Y114.130 E0.26212
G1 X122.245 Y114.130 E0.01716
G1 X115.870 Y107.755 E0.28638
G1 X115.870 Y107.214 E0.01716
G1 X122.786 Y114.130 E0.31065
G1 X123.326 Y114.130 E0.01716
G1 X115.870 Y106.674 E0.33491
G1 X115.870 Y106.134 E0.01716
G1 X123.866 Y114.130 E0.35918
G1 X124.406 Y114.130 E0.01716
G1 X115.870 Y105.594 E0.38344
G1 X115.870 Y105.054 E0.01716
G1 X124.946 Y114.130 E0.40771
G1 X125.487 Y114.130 E0.01716
G1 X115.870 Y104.513 E0.43198
G1 X115.870 Y103.973 E0.01716
G1 X126.027 Y114.130 E0.45624
G1 X126.567 Y114.130 E0.01716
G1 X115.870 Y103.433 E0.48051
G1 X115.870 Y102.893 E0.01716
G1 X127.107 Y114.130 E0.50477
G1 X127.648 Y114.130 E0.01716
G1 X115.870 Y102.352 E0.52904
G1 X115.870 Y101.812 E0.01716
G1 X128.188 Y114.130 E0.55330
G1 X128.728 Y114.130 E0.01716
G1 X115.870 Y101.272 E0.57757
G1 X115.870 Y100.732 E0.01716
G1 X129.268 Y114.130 E0.60184
G1 X129.808 Y114.130 E0.01716
G1 X115.870 Y100.192 E0.62610
G1 X115.870 Y99.651 E0.01716
G1 X130.349 Y114.130 E0.65037
G1 X130.889 Y114.130 E0.01716
G1 X115.870 Y99.111 E0.67463
G1 X115.870 Y98.571 E0.01716
G1 X131.429 Y114.130 E0.69890
G1 X131.969 Y114.130 E0.01716
G1 X115.870 Y98.031 E0.72316
G1 X115.870 Y97.491 E0.01716
G1 X132.509 Y114.130 E0.74743
G1 X133.050 Y114.130 E0.01716
G1 X115.870 Y96.950 E0.77170
G1 X115.870 Y96.410 E0.01716
G1 X133.590 Y114.130 E0.79596
G1 X134.130 Y114.130 E0.01716
G1 X115.870 Y95.870 E0.82023
G1 X116.410 Y95.870 E0.01716
G1 X134.130 Y113.590 E0.79597
G1 X134.130 Y113.050 E0.01716
G1 X116.950 Y95.870 E0.77170
G1 X117.490 Y95.870 E0.01716
G1 X134.130 Y112.510 E0.74744
G1 X134.130 Y111.969 E0.01716
G1 X118.031 Y95.870 E0.72317
G1 X118.571 Y95.870 E0.01716
G1 X134.130 Y111.429 E0.69890
G1 X134.130 Y110.889 E0.01716
G1 X119.111 Y95.870 E0.67464
G1 X119.651 Y95.870 E0.01716
G1 X134.130 Y110.349 E0.65037
G1 X134.130 Y109.808 E0.01716
G1 X120.192 Y95.870 E0.62611
G1 X120.732 Y95.870 E0.01716
G1 X134.130 Y109.268 E0.60184
G1 X134.130 Y108.728 E0.01716
G1 X121.272 Y95.870 E0.57758
G1 X121.812 Y95.870 E0.01716
G1 X134.130 Y108.188 E0.55331
G1 X134.130 Y107.648 E0.01716
G1 X122.352 Y95.870 E0.52904
G1 X122.893 Y95.870 E0.01716
G1 X134.130 Y107.107 E0.50478
G1 X134.130 Y106.567 E0.01716
G1 X123.433 Y95.870 E0.48051
M73 Q2 S37
M73 P2 R37
G1 X123.973 Y95.870 E0.01716
G1 X134.130 Y106.027 E0.45625
G1 X134.130 Y105.487 E0.01716
G1 X124.513 Y95.870 E0.43198
G1 X125.053 Y95.870 E0.01716
G1 X134.130 Y104.947 E0.40772
G1 X134.130 Y104.406 E0.01716
G1 X125.594 Y95.870 E0.38345
G1 X126.134 Y95.870 E0.01716
G1 X134.130 Y103.866 E0.35918
G1 X134.130 Y103.326 E0.01716
G1 X126.674 Y95.870 E0.33492
G1 X127.214 Y95.870 E0.01716
G1 X134.130 Y102.786 E0.31065
G1 X134.130 Y102.246 E0.01716
G1 X127.754 Y95.870 E0.28639
G1 X128.295 Y95.870 E0.01716
G1 X134.130 Y101.705 E0.26212
G1 X134.130 Y101.165 E0.01716
G1 X128.835 Y95.870 E0.23786
G1 X129.375 Y95.870 E0.01716
G1 X134.130 Y100.625 E0.21359
G1 X134.130 Y100.085 E0.01716
G1 X129.915 Y95.870 E0.18932
G1 X130.456 Y95.870 E0.01716
G1 X134.130 Y99.544 E0.16506
G1 X134.130 Y99.004 E0.01716
G1 X130.996 Y95.870 E0.14079
G1 X131.536 Y95.870 E0.01716
G1 X134.130 Y98.464 E0.11653
G1 X134.130 Y97.924 E0.01716
G1 X132.076 Y95.870 E0.09226
G1 X132.616 Y95.870 E0.01716
G1 X134.130 Y97.384 E0.06800
G1 X134.130 Y96.843 E0.01716
G1 X133.157 Y95.870 E0.04373
G1 X133.697 Y95.870 E0.01716
G1 X134.300 Y96.473 E0.02709
M106 S255
;BEFORE_LAYER_CHANGE
G92 E0.0
;0.4


G1 F8640
G1 X133.697 Y95.870 E-0.19691
G1 X133.157 Y95.870 E-0.12474
G1 X134.130 Y96.843 E-0.31790
G1 X134.130 Y97.365 E-0.12046
G1 E-0.04000 F2100.00000
G1 Z0.800 F10800.000
;AFTER_LAYER_CHANGE
;0.4
M104 S210 ; set temperature
G1 X137.309 Y93.882
G1 Z0.400
G1 E0.80000 F2100.00000
G1 F3000
G1 X137.558 Y94.797 E0.02973
G1 X137.565 Y115.075 E0.63582
G1 X137.386 Y115.943 E0.02778
G1 X136.920 Y116.701 E0.02790
G1 X136.527 Y117.061 E0.01672
G1 X136.065 Y117.334 E0.01684
G1 X135.559 Y117.504 E0.01672
G1 X135.025 Y117.565 E0.01684
G1 X114.925 Y117.565 E0.63024
G1 X114.057 Y117.386 E0.02778
G1 X113.299 Y116.920 E0.02790
G1 X112.939 Y116.527 E0.01672
G1 X112.666 Y116.065 E0.01684
G1 X112.496 Y115.559 E0.01672
G1 X112.435 Y115.025 E0.01684
G1 X112.435 Y94.925 E0.63024
G1 X112.614 Y94.057 E0.02778
G1 X113.080 Y93.299 E0.02790
G1 X113.457 Y92.950 E0.01610
G1 X113.900 Y92.682 E0.01623
G1 X114.387 Y92.509 E0.01623
G1 X114.899 Y92.436 E0.01623
G1 X135.004 Y92.434 E0.63036
G1 X135.936 Y92.611 E0.02973
G1 X136.742 Y93.117 E0.02985
G1 X137.273 Y93.833 E0.02797
; PURGING FINISHED
G1 F8640
G1 X137.558 Y94.797 E-0.23190
G1 X137.558 Y97.084 E-0.52810
G1 E-0.04000 F2100.00000
G1 Z1.000 F10800.000
G1 X134.368 Y95.632
G1 Z0.400
G1 E0.80000 F2100.00000
M204 S800
G1 F2700
G1 X134.368 Y114.368 E0.63419
G1 X115.632 Y114.368 E0.63419
G1 X115.632 Y95.632 E0.63419
G1 X134.308 Y95.632 E0.63216
M204 S1000
G1 X134.775 Y95.225 F10800.000
M204 S800
G1 F1500
G1 X134.775 Y114.775 E0.66174
G1 X115.225 Y114.775 E0.66174
G1 X115.225 Y95.225 E0.66174
G1 X134.715 Y95.225 E0.65971
M204 S1000
G1 X134.671 Y95.611 F10800.000
G1 F8640
G1 X134.725 Y98.516 E-0.76000
G1 E-0.04000 F2100.00000
G1 Z1.000 F10800.000
G1 X115.754 Y96.582
G1 Z0.400
G1 E0.80000 F2100.00000
M204 S1250
G1 F4102
G1 X116.399 Y95.937 E0.03105
G1 X116.978 Y95.937 E0.01972
G1 X115.937 Y96.978 E0.05012
G1 X115.937 Y97.557 E0.01972
G1 X117.557 Y95.937 E0.07800
G1 X118.136 Y95.937 E0.01972
G1 X115.937 Y98.136 E0.10589
G1 X115.937 Y98.716 E0.01972
G1 X118.716 Y95.937 E0.13378
G1 X119.295 Y95.937 E0.01972
G1 X115.937 Y99.295 E0.16167
G1 X115.937 Y99.874 E0.01972
G1 X119.874 Y95.937 E0.18956
G1 X120.453 Y95.937 E0.01972
G1 X115.937 Y100.453 E0.21745
G1 X115.937 Y101.032 E0.01972
G1 X121.032 Y95.937 E0.24533
G1 X121.611 Y95.937 E0.01972
G1 X115.937 Y101.611 E0.27322
G1 X115.937 Y102.190 E0.01972
G1 X122.190 Y95.937 E0.30111
G1 X122.769 Y95.937 E0.01972
G1 X115.937 Y102.769 E0.32900
G1 X115.937 Y103.349 E0.01972
G1 X123.349 Y95.937 E0.35689
G1 X123.928 Y95.937 E0.01972
G1 X115.937 Y103.928 E0.38478
G1 X115.937 Y104.507 E0.01972
G1 X124.507 Y95.937 E0.41267
G1 X125.086 Y95.937 E0.01972
G1 X115.937 Y105.086 E0.44055
G1 X115.937 Y105.665 E0.01972
G1 X125.665 Y95.937 E0.46844
G1 X126.244 Y95.937 E0.01972
G1 X115.937 Y106.244 E0.49633
G1 X115.937 Y106.823 E0.01972
G1 X126.823 Y95.937 E0.52422
G1 X127.403 Y95.937 E0.01972
G1 X115.937 Y107.403 E0.55211
G1 X115.937 Y107.982 E0.01972
G1 X127.982 Y95.937 E0.58000
G1 X128.561 Y95.937 E0.01972
G1 X115.937 Y108.561 E0.60788
G1 X115.937 Y109.140 E0.01972
G1 X129.140 Y95.937 E0.63577
G1 X129.719 Y95.937 E0.01972
G1 X115.937 Y109.719 E0.66366
G1 X115.937 Y110.298 E0.01972
G1 X130.298 Y95.937 E0.69155
G1 X130.877 Y95.937 E0.01972
G1 X115.937 Y110.877 E0.71944
G1 X115.937 Y111.456 E0.01972
G1 X131.456 Y95.937 E0.74733
G1 X132.036 Y95.937 E0.01972
G1 X115.937 Y112.036 E0.77521
G1 X115.937 Y112.615 E0.01972
G1 X132.615 Y95.937 E0.80310
G1 X133.194 Y95.937 E0.01972
G1 X115.937 Y113.194 E0.83099
G1 X115.937 Y113.773 E0.01972
G1 X133.773 Y95.937 E0.85888
G1 X134.063 Y95.937 E0.00986
G1 X134.063 Y96.227 E0.00986
G1 X116.227 Y114.063 E0.85888
G1 X116.806 Y114.063 E0.01972
G1 X134.063 Y96.806 E0.83100
G1 X134.063 Y97.385 E0.01972
G1 X117.385 Y114.063 E0.80311
G1 X117.964 Y114.063 E0.01972
G1 X134.063 Y97.964 E0.77522
G1 X134.063 Y98.543 E0.01972
G1 X118.543 Y114.063 E0.74733
G1 X119.123 Y114.063 E0.01972
G1 X134.063 Y99.123 E0.71944
G1 X134.063 Y99.702 E0.01972
G1 X119.702 Y114.063 E0.69155
G1 X120.281 Y114.063 E0.01972
G1 X134.063 Y100.281 E0.66367
G1 X134.063 Y100.860 E0.01972
G1 X120.860 Y114.063 E0.63578
G1 X121.439 Y114.063 E0.01972
G1 X134.063 Y101.439 E0.60789
G1 X134.063 Y102.018 E0.01972
G1 X122.018 Y114.063 E0.58000
G1 X122.597 Y114.063 E0.01972
G1 X134.063 Y102.597 E0.55211
G1 X134.063 Y103.177 E0.01972
G1 X123.177 Y114.063 E0.52422
G1 X123.756 Y114.063 E0.01972
G1 X134.063 Y103.756 E0.49634
G1 X134.063 Y104.335 E0.01972
G1 X124.335 Y114.063 E0.46845
G1 X124.914 Y114.063 E0.01972
G1 X134.063 Y104.914 E0.44056
G1 X134.063 Y105.493 E0.01972
G1 X125.493 Y114.063 E0.41267
G1 X126.072 Y114.063 E0.01972
G1 X134.063 Y106.072 E0.38478
G1 X134.063 Y106.651 E0.01972
G1 X126.651 Y114.063 E0.35689
G1 X127.230 Y114.063 E0.01972
G1 X134.063 Y107.230 E0.32901
G1 X134.063 Y107.810 E0.01972
G1 X127.810 Y114.063 E0.30112
G1 X128.389 Y114.063 E0.01972
G1 X134.063 Y108.389 E0.27323
G1 X134.063 Y108.968 E0.01972
G1 X128.968 Y114.063 E0.24534
G1 X129.547 Y114.063 E0.01972
G1 X134.063 Y109.547 E0.21745
G1 X134.063 Y110.126 E0.01972
G1 X130.126 Y114.063 E0.18956
G1 X130.705 Y114.063 E0.01972
G1 X134.063 Y110.705 E0.16167
G1 X134.063 Y111.284 E0.01972
G1 X131.284 Y114.063 E0.13379
G1 X131.864 Y114.063 E0.01972
G1 X134.063 Y111.864 E0.10590
G1 X134.063 Y112.443 E0.01972
G1 X132.443 Y114.063 E0.07801
G1 X133.022 Y114.063 E0.01972
G1 X134.063 Y113.022 E0.05012
G1 X134.063 Y113.601 E0.01972
G1 X133.418 Y114.246 E0.03105
M204 S1000
;BEFORE_LAYER_CHANGE
G92 E0.0
;0.6


G1 F8640
G1 X134.063 Y113.601 E-0.21058
G1 X134.063 Y113.022 E-0.13372
G1 X133.022 Y114.063 E-0.33988
G1 X132.693 Y114.063 E-0.07581
G1 E-0.04000 F2100.00000
G1 Z1.000 F10800.000
;AFTER_LAYER_CHANGE
;0.6
G1 X137.386 Y115.943
G1 Z0.600
G1 E0.80000 F2100.00000
G1 F3000
G1 X136.920 Y116.701 E0.02790
G1 X136.527 Y117.061 E0.01672
G1 X136.065 Y117.334 E0.01684
G1 X135.559 Y117.504 E0.01672
G1 X135.025 Y117.565 E0.01684
G1 X114.925 Y117.565 E0.63024
G1 X114.057 Y117.386 E0.02778
G1 X113.299 Y116.920 E0.02790
G1 X112.939 Y116.527 E0.01672
G1 X112.666 Y116.065 E0.01684
G1 X112.496 Y115.559 E0.01672
G1 X112.435 Y115.025 E0.01684
G1 X112.435 Y94.925 E0.63024
G1 X112.614 Y94.057 E0.02778
G1 X113.080 Y93.299 E0.02790
G1 X113.457 Y92.950 E0.01610
G1 X113.900 Y92.682 E0.01623
G1 X114.387 Y92.509 E0.01623
G1 X114.899 Y92.436 E0.01623
G1 X135.004 Y92.434 E0.63036
G1 X135.936 Y92.611 E0.02973
G1 X136.742 Y93.117 E0.02985
G1 X137.309 Y93.882 E0.02985
G1 X137.558 Y94.797 E0.02973
G1 X137.565 Y115.075 E0.63582
G1 X137.398 Y115.884 E0.02590
; PURGING FINISHED
G1 F8640
G1 X136.920 Y116.701 E-0.21853
G1 X136.527 Y117.061 E-0.12313
G1 X136.065 Y117.334 E-0.12404
G1 X135.559 Y117.504 E-0.12313
G1 X135.025 Y117.565 E-0.12404
G1 X134.821 Y117.565 E-0.04713
G1 E-0.04000 F2100.00000
G1 Z1.200 F10800.000
G1 X134.368 Y114.368
G1 Z0.600
G1 E0.80000 F2100.00000
M204 S800
G1 F2700
G1 X115.632 Y114.368 E0.63419
G1 X115.632 Y95.632 E0.63419
G1 X134.368 Y95.632 E0.63419
G1 X134.368 Y114.308 E0.63216
M204 S1000
G1 X134.775 Y114.775 F10800.000
M204 S800
G1 F1500
G1 X115.225 Y114.775 E0.66174
G1 X115.225 Y95.225 E0.66174
G1 X134.775 Y95.225 E0.66174
G1 X134.775 Y114.715 E0.65971
M204 S1000
G1 X134.389 Y114.671 F10800.000
G1 F8640
G1 X131.484 Y114.725 E-0.76000
G1 E-0.04000 F2100.00000
G1 Z1.200 F10800.000
G1 X134.246 Y96.582
G1 Z0.600
G1 E0.80000 F2100.00000
M204 S1250
G1 F4102
G1 X133.601 Y95.937 E0.03105
G1 X133.022 Y95.937 E0.01972
G1 X134.063 Y96.978 E0.05012
G1 X134.063 Y97.557 E0.01972
G1 X132.443 Y95.937 E0.07801
G1 X131.864 Y95.937 E0.01972
G1 X134.063 Y98.136 E0.10590
G1 X134.063 Y98.716 E0.01972
G1 X131.284 Y95.937 E0.13379
G1 X130.705 Y95.937 E0.01972
G1 X134.063 Y99.295 E0.16167
G1 X134.063 Y99.874 E0.01972
G1 X130.126 Y95.937 E0.18956
G1 X129.547 Y95.937 E0.01972
G1 X134.063 Y100.453 E0.21745
G1 X134.063 Y101.032 E0.01972
G1 X128.968 Y95.937 E0.24534
G1 X128.389 Y95.937 E0.01972
G1 X134.063 Y101.611 E0.27323
G1 X134.063 Y102.190 E0.01972
G1 X127.810 Y95.937 E0.30112
G1 X127.230 Y95.937 E0.01972
G1 X134.063 Y102.770 E0.32901
G1 X134.063 Y103.349 E0.01972
G1 X126.651 Y95.937 E0.35689
G1 X126.072 Y95.937 E0.01972
G1 X134.063 Y103.928 E0.38478
G1 X134.063 Y104.507 E0.01972
G1 X125.493 Y95.937 E0.41267
G1 X124.914 Y95.937 E0.01972
